(G-CODE GENERATED BY FLATCAM v8.994 - www.flatcam.org - Version Date: 2020/11/7)

(Name: cave-phone-mc34118-F_Cu.gbr_iso_combined_cnc)
(Type: G-code from Geometry)
(Units: MM)

(Created on Панядзелак, 28 лютага 2022 at 02:15)

(This preprocessor is used with a motion controller loaded with GRBL firmware.)
(It is configured to be compatible with almost any version of GRBL firmware.)

(TOOL DIAMETER: 0.18 mm)
(Feedrate_XY: 500.0 mm/min)
(Feedrate_Z: 300.0 mm/min)
(Feedrate rapids 1500.0 mm/min)

(Z_Cut: -0.0693 mm)
(Z_Move: 2.0 mm)
(Z Start: None mm)
(Z End: 45.0 mm)
(X,Y End: None mm)
(Steps per circle: 64)
(Steps per circle: 64)
(Preprocessor Geometry: grbl_11)

(X range:   -1.1360 ...   99.8150  mm)
(Y range:  -55.4260 ...    1.1360  mm)

(Spindle Speed: 24000.0 RPM)
G21
G90
G17
G94


G01 F500.00

M5             
G00 Z45.0000
G00 X0.0000 Y0.0000                
T1
M6
(MSG, Change to Tool Dia = 0.1800)
M0
G00 Z45.0000

M03 S24000.0
G01 F500.00
G00 X-0.1228 Y-0.3133
G01 F300.00
G01 Z-0.0693
G01 F500.00
G01 X-0.1263 Y-0.3401 F500.00
G01 X-0.1276 Y-0.3580 F500.00
G01 X-0.1280 Y-0.3760 F500.00
G01 X-0.1280 Y-53.8530 F500.00
G01 X-0.1270 Y-53.8800 F500.00
G01 X-0.1253 Y-53.8979 F500.00
G01 X-0.1228 Y-53.9157 F500.00
G01 X-0.1194 Y-53.9333 F500.00
G01 X-0.1059 Y-53.9949 F500.00
G01 X-0.0981 Y-54.0221 F500.00
G01 X-0.0884 Y-54.0487 F500.00
G01 X-0.0766 Y-54.0745 F500.00
G01 X-0.0678 Y-54.0912 F500.00
G01 X-0.0529 Y-54.1153 F500.00
G01 X-0.0363 Y-54.1383 F500.00
G01 X-0.0243 Y-54.1529 F500.00
G01 X0.0222 Y-54.2065 F500.00
G01 X0.0348 Y-54.2204 F500.00
G01 X0.0551 Y-54.2400 F500.00
G01 X0.0767 Y-54.2580 F500.00
G01 X0.0996 Y-54.2744 F500.00
G01 X0.1236 Y-54.2891 F500.00
G01 X0.1403 Y-54.2978 F500.00
G01 X0.1573 Y-54.3057 F500.00
G01 X0.1835 Y-54.3160 F500.00
G01 X0.2014 Y-54.3217 F500.00
G01 X0.2782 Y-54.3441 F500.00
G01 X0.3045 Y-54.3502 F500.00
G01 X0.3222 Y-54.3532 F500.00
G01 X0.3490 Y-54.3560 F500.00
G01 X0.3760 Y-54.3570 F500.00
G01 X62.2560 Y-54.3570 F500.00
G01 X62.2892 Y-54.3688 F500.00
G01 X62.3070 Y-54.3742 F500.00
G01 X62.3826 Y-54.3932 F500.00
G01 X62.4098 Y-54.3990 F500.00
G01 X62.4869 Y-54.4105 F500.00
G01 X62.5053 Y-54.4128 F500.00
G01 X62.5238 Y-54.4142 F500.00
G01 X62.5925 Y-54.4175 F500.00
G01 X62.6110 Y-54.4180 F500.00
G01 X62.6295 Y-54.4175 F500.00
G01 X62.6982 Y-54.4142 F500.00
G01 X62.7167 Y-54.4128 F500.00
G01 X62.7351 Y-54.4105 F500.00
G01 X62.8122 Y-54.3990 F500.00
G01 X62.8394 Y-54.3932 F500.00
G01 X62.9150 Y-54.3742 F500.00
G01 X62.9328 Y-54.3688 F500.00
G01 X62.9660 Y-54.3570 F500.00
G01 X98.3030 Y-54.3570 F500.00
G01 X98.3210 Y-54.3566 F500.00
G01 X98.3389 Y-54.3553 F500.00
G01 X98.3657 Y-54.3518 F500.00
G01 X98.3833 Y-54.3484 F500.00
G01 X98.4449 Y-54.3349 F500.00
G01 X98.4721 Y-54.3271 F500.00
G01 X98.4987 Y-54.3174 F500.00
G01 X98.5245 Y-54.3056 F500.00
G01 X98.5412 Y-54.2968 F500.00
G01 X98.5653 Y-54.2819 F500.00
G01 X98.5883 Y-54.2653 F500.00
G01 X98.6029 Y-54.2533 F500.00
G01 X98.6565 Y-54.2068 F500.00
G01 X98.6704 Y-54.1942 F500.00
G01 X98.6900 Y-54.1739 F500.00
G01 X98.7080 Y-54.1523 F500.00
G01 X98.7244 Y-54.1294 F500.00
G01 X98.7391 Y-54.1054 F500.00
G01 X98.7478 Y-54.0887 F500.00
G01 X98.7557 Y-54.0717 F500.00
G01 X98.7660 Y-54.0455 F500.00
G01 X98.7717 Y-54.0276 F500.00
G01 X98.7941 Y-53.9508 F500.00
G01 X98.8002 Y-53.9245 F500.00
G01 X98.8032 Y-53.9068 F500.00
G01 X98.8060 Y-53.8800 F500.00
G01 X98.8070 Y-53.8530 F500.00
G01 X98.8070 Y-0.3760 F500.00
G01 X98.8066 Y-0.3580 F500.00
G01 X98.8053 Y-0.3401 F500.00
G01 X98.8018 Y-0.3133 F500.00
G01 X98.7984 Y-0.2957 F500.00
G01 X98.7849 Y-0.2341 F500.00
G01 X98.7771 Y-0.2069 F500.00
G01 X98.7708 Y-0.1890 F500.00
G01 X98.7598 Y-0.1630 F500.00
G01 X98.7468 Y-0.1378 F500.00
G01 X98.7319 Y-0.1137 F500.00
G01 X98.7153 Y-0.0907 F500.00
G01 X98.7033 Y-0.0761 F500.00
G01 X98.6568 Y-0.0225 F500.00
G01 X98.6442 Y-0.0086 F500.00
G01 X98.6239 Y0.0110 F500.00
G01 X98.6023 Y0.0290 F500.00
G01 X98.5794 Y0.0454 F500.00
G01 X98.5554 Y0.0601 F500.00
G01 X98.5303 Y0.0729 F500.00
G01 X98.5131 Y0.0803 F500.00
G01 X98.4955 Y0.0870 F500.00
G01 X98.4776 Y0.0927 F500.00
G01 X98.4008 Y0.1151 F500.00
G01 X98.3833 Y0.1194 F500.00
G01 X98.3568 Y0.1242 F500.00
G01 X98.3300 Y0.1270 F500.00
G01 X98.3030 Y0.1280 F500.00
G01 X0.3760 Y0.1280 F500.00
G01 X0.3580 Y0.1276 F500.00
G01 X0.3401 Y0.1263 F500.00
G01 X0.3133 Y0.1228 F500.00
G01 X0.2957 Y0.1194 F500.00
G01 X0.2433 Y0.1080 F500.00
G01 X0.2250 Y0.1035 F500.00
G01 X0.1979 Y0.0951 F500.00
G01 X0.1716 Y0.0847 F500.00
G01 X0.1545 Y0.0766 F500.00
G01 X0.1378 Y0.0678 F500.00
G01 X0.1216 Y0.0581 F500.00
G01 X0.1059 Y0.0476 F500.00
G01 X0.0833 Y0.0304 F500.00
G01 X0.0225 Y-0.0222 F500.00
G01 X0.0086 Y-0.0348 F500.00
G01 X-0.0046 Y-0.0482 F500.00
G01 X-0.0172 Y-0.0621 F500.00
G01 X-0.0290 Y-0.0767 F500.00
G01 X-0.0402 Y-0.0918 F500.00
G01 X-0.0505 Y-0.1075 F500.00
G01 X-0.0601 Y-0.1236 F500.00
G01 X-0.0688 Y-0.1403 F500.00
G01 X-0.0803 Y-0.1659 F500.00
G01 X-0.0899 Y-0.1924 F500.00
G01 X-0.1151 Y-0.2782 F500.00
G01 X-0.1194 Y-0.2957 F500.00
G01 X-0.1228 Y-0.3133 F500.00
G00 Z2.0000
G00 X-0.2648 Y-0.2894
G01 F300.00
G01 Z-0.0693
G01 F500.00
G01 X-0.2683 Y-0.3140 F500.00
G01 X-0.2707 Y-0.3388 F500.00
G01 X-0.2719 Y-0.3636 F500.00
G01 X-0.2720 Y-0.3760 F500.00
G01 X-0.2720 Y-53.8530 F500.00
G01 X-0.2714 Y-53.8778 F500.00
G01 X-0.2707 Y-53.8902 F500.00
G01 X-0.2696 Y-53.9026 F500.00
G01 X-0.2667 Y-53.9273 F500.00
G01 X-0.2626 Y-53.9518 F500.00
G01 X-0.2601 Y-53.9640 F500.00
G01 X-0.2458 Y-54.0290 F500.00
G01 X-0.2425 Y-54.0416 F500.00
G01 X-0.2351 Y-54.0666 F500.00
G01 X-0.2264 Y-54.0912 F500.00
G01 X-0.2216 Y-54.1034 F500.00
G01 X-0.2165 Y-54.1154 F500.00
G01 X-0.2054 Y-54.1390 F500.00
G01 X-0.1931 Y-54.1620 F500.00
G01 X-0.1798 Y-54.1844 F500.00
G01 X-0.1726 Y-54.1953 F500.00
G01 X-0.1576 Y-54.2167 F500.00
G01 X-0.1497 Y-54.2270 F500.00
G01 X-0.1331 Y-54.2472 F500.00
G01 X-0.0866 Y-54.3008 F500.00
G01 X-0.0692 Y-54.3200 F500.00
G01 X-0.0601 Y-54.3293 F500.00
G01 X-0.0412 Y-54.3471 F500.00
G01 X-0.0315 Y-54.3556 F500.00
G01 X-0.0114 Y-54.3720 F500.00
G01 X0.0095 Y-54.3873 F500.00
G01 X0.0202 Y-54.3946 F500.00
G01 X0.0311 Y-54.4016 F500.00
G01 X0.0535 Y-54.4148 F500.00
G01 X0.0649 Y-54.4210 F500.00
G01 X0.0881 Y-54.4325 F500.00
G01 X0.0999 Y-54.4378 F500.00
G01 X0.1239 Y-54.4475 F500.00
G01 X0.1484 Y-54.4560 F500.00
G01 X0.1608 Y-54.4599 F500.00
G01 X0.2409 Y-54.4832 F500.00
G01 X0.2650 Y-54.4891 F500.00
G01 X0.2894 Y-54.4938 F500.00
G01 X0.3017 Y-54.4957 F500.00
G01 X0.3264 Y-54.4986 F500.00
G01 X0.3388 Y-54.4997 F500.00
G01 X0.3636 Y-54.5009 F500.00
G01 X0.3760 Y-54.5010 F500.00
G01 X62.2310 Y-54.5010 F500.00
G01 X62.2563 Y-54.5094 F500.00
G01 X62.2810 Y-54.5162 F500.00
G01 X62.3601 Y-54.5359 F500.00
G01 X62.3726 Y-54.5385 F500.00
G01 X62.3978 Y-54.5429 F500.00
G01 X62.4658 Y-54.5530 F500.00
G01 X62.4912 Y-54.5561 F500.00
G01 X62.5168 Y-54.5580 F500.00
G01 X62.5854 Y-54.5614 F500.00
G01 X62.6110 Y-54.5620 F500.00
G01 X62.6366 Y-54.5614 F500.00
G01 X62.7052 Y-54.5580 F500.00
G01 X62.7308 Y-54.5561 F500.00
G01 X62.7562 Y-54.5530 F500.00
G01 X62.8242 Y-54.5429 F500.00
G01 X62.8494 Y-54.5385 F500.00
G01 X62.8619 Y-54.5359 F500.00
G01 X62.9410 Y-54.5162 F500.00
G01 X62.9657 Y-54.5094 F500.00
G01 X62.9910 Y-54.5010 F500.00
G01 X98.3030 Y-54.5010 F500.00
G01 X98.3154 Y-54.5009 F500.00
G01 X98.3402 Y-54.4997 F500.00
G01 X98.3650 Y-54.4973 F500.00
G01 X98.3773 Y-54.4957 F500.00
G01 X98.3896 Y-54.4938 F500.00
G01 X98.4140 Y-54.4891 F500.00
G01 X98.4790 Y-54.4748 F500.00
G01 X98.5042 Y-54.4679 F500.00
G01 X98.5166 Y-54.4641 F500.00
G01 X98.5412 Y-54.4554 F500.00
G01 X98.5654 Y-54.4455 F500.00
G01 X98.5773 Y-54.4401 F500.00
G01 X98.5890 Y-54.4344 F500.00
G01 X98.6120 Y-54.4221 F500.00
G01 X98.6233 Y-54.4156 F500.00
G01 X98.6453 Y-54.4016 F500.00
G01 X98.6667 Y-54.3866 F500.00
G01 X98.6770 Y-54.3787 F500.00
G01 X98.6972 Y-54.3621 F500.00
G01 X98.7508 Y-54.3156 F500.00
G01 X98.7700 Y-54.2982 F500.00
G01 X98.7793 Y-54.2891 F500.00
G01 X98.7971 Y-54.2702 F500.00
G01 X98.8139 Y-54.2505 F500.00
G01 X98.8220 Y-54.2404 F500.00
G01 X98.8373 Y-54.2195 F500.00
G01 X98.8446 Y-54.2088 F500.00
G01 X98.8583 Y-54.1868 F500.00
G01 X98.8648 Y-54.1755 F500.00
G01 X98.8710 Y-54.1641 F500.00
G01 X98.8825 Y-54.1409 F500.00
G01 X98.8878 Y-54.1291 F500.00
G01 X98.8975 Y-54.1051 F500.00
G01 X98.9019 Y-54.0929 F500.00
G01 X98.9099 Y-54.0682 F500.00
G01 X98.9332 Y-53.9881 F500.00
G01 X98.9391 Y-53.9640 F500.00
G01 X98.9416 Y-53.9518 F500.00
G01 X98.9438 Y-53.9396 F500.00
G01 X98.9473 Y-53.9150 F500.00
G01 X98.9497 Y-53.8902 F500.00
G01 X98.9504 Y-53.8778 F500.00
G01 X98.9510 Y-53.8530 F500.00
G01 X98.9510 Y-0.3760 F500.00
G01 X98.9509 Y-0.3636 F500.00
G01 X98.9497 Y-0.3388 F500.00
G01 X98.9486 Y-0.3264 F500.00
G01 X98.9457 Y-0.3017 F500.00
G01 X98.9438 Y-0.2894 F500.00
G01 X98.9391 Y-0.2650 F500.00
G01 X98.9248 Y-0.2000 F500.00
G01 X98.9179 Y-0.1748 F500.00
G01 X98.9141 Y-0.1624 F500.00
G01 X98.9099 Y-0.1500 F500.00
G01 X98.9006 Y-0.1256 F500.00
G01 X98.8901 Y-0.1017 F500.00
G01 X98.8784 Y-0.0784 F500.00
G01 X98.8721 Y-0.0670 F500.00
G01 X98.8656 Y-0.0557 F500.00
G01 X98.8516 Y-0.0337 F500.00
G01 X98.8366 Y-0.0123 F500.00
G01 X98.8287 Y-0.0020 F500.00
G01 X98.8121 Y0.0182 F500.00
G01 X98.7656 Y0.0718 F500.00
G01 X98.7482 Y0.0910 F500.00
G01 X98.7298 Y0.1093 F500.00
G01 X98.7202 Y0.1181 F500.00
G01 X98.7005 Y0.1349 F500.00
G01 X98.6904 Y0.1430 F500.00
G01 X98.6800 Y0.1508 F500.00
G01 X98.6588 Y0.1656 F500.00
G01 X98.6479 Y0.1726 F500.00
G01 X98.6255 Y0.1858 F500.00
G01 X98.6026 Y0.1979 F500.00
G01 X98.5909 Y0.2035 F500.00
G01 X98.5671 Y0.2138 F500.00
G01 X98.5551 Y0.2185 F500.00
G01 X98.5429 Y0.2229 F500.00
G01 X98.5182 Y0.2309 F500.00
G01 X98.4381 Y0.2542 F500.00
G01 X98.4140 Y0.2601 F500.00
G01 X98.3896 Y0.2648 F500.00
G01 X98.3773 Y0.2667 F500.00
G01 X98.3526 Y0.2696 F500.00
G01 X98.3402 Y0.2707 F500.00
G01 X98.3278 Y0.2714 F500.00
G01 X98.3030 Y0.2720 F500.00
G01 X0.3760 Y0.2720 F500.00
G01 X0.3512 Y0.2714 F500.00
G01 X0.3264 Y0.2696 F500.00
G01 X0.3017 Y0.2667 F500.00
G01 X0.2772 Y0.2626 F500.00
G01 X0.2127 Y0.2487 F500.00
G01 X0.1874 Y0.2425 F500.00
G01 X0.1748 Y0.2389 F500.00
G01 X0.1500 Y0.2309 F500.00
G01 X0.1256 Y0.2216 F500.00
G01 X0.1017 Y0.2111 F500.00
G01 X0.0784 Y0.1994 F500.00
G01 X0.0557 Y0.1866 F500.00
G01 X0.0337 Y0.1726 F500.00
G01 X0.0123 Y0.1576 F500.00
G01 X-0.0082 Y0.1415 F500.00
G01 X-0.0718 Y0.0866 F500.00
G01 X-0.0910 Y0.0692 F500.00
G01 X-0.1093 Y0.0508 F500.00
G01 X-0.1181 Y0.0412 F500.00
G01 X-0.1349 Y0.0215 F500.00
G01 X-0.1508 Y0.0010 F500.00
G01 X-0.1656 Y-0.0202 F500.00
G01 X-0.1793 Y-0.0422 F500.00
G01 X-0.1920 Y-0.0649 F500.00
G01 X-0.2035 Y-0.0881 F500.00
G01 X-0.2138 Y-0.1119 F500.00
G01 X-0.2185 Y-0.1239 F500.00
G01 X-0.2270 Y-0.1484 F500.00
G01 X-0.2542 Y-0.2409 F500.00
G01 X-0.2601 Y-0.2650 F500.00
G01 X-0.2648 Y-0.2894 F500.00
G00 Z2.0000
G00 X-0.4068 Y-0.2656
G01 F300.00
G01 Z-0.0693
G01 F500.00
G01 X-0.4113 Y-0.2969 F500.00
G01 X-0.4143 Y-0.3285 F500.00
G01 X-0.4158 Y-0.3602 F500.00
G01 X-0.4160 Y-0.3760 F500.00
G01 X-0.4160 Y-53.8530 F500.00
G01 X-0.4152 Y-53.8847 F500.00
G01 X-0.4143 Y-53.9005 F500.00
G01 X-0.4113 Y-53.9321 F500.00
G01 X-0.4092 Y-53.9478 F500.00
G01 X-0.4040 Y-53.9790 F500.00
G01 X-0.3857 Y-54.0631 F500.00
G01 X-0.3770 Y-54.0953 F500.00
G01 X-0.3667 Y-54.1269 F500.00
G01 X-0.3609 Y-54.1425 F500.00
G01 X-0.3483 Y-54.1733 F500.00
G01 X-0.3414 Y-54.1885 F500.00
G01 X-0.3265 Y-54.2182 F500.00
G01 X-0.3185 Y-54.2328 F500.00
G01 X-0.3014 Y-54.2614 F500.00
G01 X-0.2924 Y-54.2754 F500.00
G01 X-0.2830 Y-54.2891 F500.00
G01 X-0.2631 Y-54.3158 F500.00
G01 X-0.2419 Y-54.3415 F500.00
G01 X-0.1955 Y-54.3951 F500.00
G01 X-0.1732 Y-54.4196 F500.00
G01 X-0.1616 Y-54.4314 F500.00
G01 X-0.1376 Y-54.4541 F500.00
G01 X-0.1251 Y-54.4650 F500.00
G01 X-0.0995 Y-54.4859 F500.00
G01 X-0.0863 Y-54.4959 F500.00
G01 X-0.0591 Y-54.5148 F500.00
G01 X-0.0452 Y-54.5237 F500.00
G01 X-0.0167 Y-54.5405 F500.00
G01 X0.0125 Y-54.5559 F500.00
G01 X0.0275 Y-54.5631 F500.00
G01 X0.0425 Y-54.5699 F500.00
G01 X0.0732 Y-54.5823 F500.00
G01 X0.0888 Y-54.5879 F500.00
G01 X0.1202 Y-54.5980 F500.00
G01 X0.2036 Y-54.6223 F500.00
G01 X0.2190 Y-54.6262 F500.00
G01 X0.2500 Y-54.6330 F500.00
G01 X0.2812 Y-54.6382 F500.00
G01 X0.2969 Y-54.6403 F500.00
G01 X0.3285 Y-54.6433 F500.00
G01 X0.3602 Y-54.6448 F500.00
G01 X0.3760 Y-54.6450 F500.00
G01 X62.2076 Y-54.6450 F500.00
G01 X62.2302 Y-54.6517 F500.00
G01 X62.2460 Y-54.6559 F500.00
G01 X62.3126 Y-54.6726 F500.00
G01 X62.3445 Y-54.6798 F500.00
G01 X62.3767 Y-54.6853 F500.00
G01 X62.4447 Y-54.6954 F500.00
G01 X62.4771 Y-54.6994 F500.00
G01 X62.5097 Y-54.7018 F500.00
G01 X62.5783 Y-54.7052 F500.00
G01 X62.6110 Y-54.7060 F500.00
G01 X62.6437 Y-54.7052 F500.00
G01 X62.7123 Y-54.7018 F500.00
G01 X62.7449 Y-54.6994 F500.00
G01 X62.7773 Y-54.6954 F500.00
G01 X62.8453 Y-54.6853 F500.00
G01 X62.8775 Y-54.6798 F500.00
G01 X62.9094 Y-54.6726 F500.00
G01 X62.9760 Y-54.6559 F500.00
G01 X62.9918 Y-54.6517 F500.00
G01 X63.0144 Y-54.6450 F500.00
G01 X98.3030 Y-54.6450 F500.00
G01 X98.3347 Y-54.6442 F500.00
G01 X98.3505 Y-54.6433 F500.00
G01 X98.3663 Y-54.6420 F500.00
G01 X98.3978 Y-54.6382 F500.00
G01 X98.4290 Y-54.6330 F500.00
G01 X98.5131 Y-54.6147 F500.00
G01 X98.5292 Y-54.6105 F500.00
G01 X98.5611 Y-54.6010 F500.00
G01 X98.5769 Y-54.5957 F500.00
G01 X98.6080 Y-54.5838 F500.00
G01 X98.6385 Y-54.5704 F500.00
G01 X98.6535 Y-54.5632 F500.00
G01 X98.6828 Y-54.5475 F500.00
G01 X98.6972 Y-54.5392 F500.00
G01 X98.7254 Y-54.5214 F500.00
G01 X98.7391 Y-54.5120 F500.00
G01 X98.7658 Y-54.4921 F500.00
G01 X98.7915 Y-54.4709 F500.00
G01 X98.8451 Y-54.4245 F500.00
G01 X98.8696 Y-54.4022 F500.00
G01 X98.8814 Y-54.3906 F500.00
G01 X98.9041 Y-54.3666 F500.00
G01 X98.9150 Y-54.3541 F500.00
G01 X98.9359 Y-54.3285 F500.00
G01 X98.9555 Y-54.3018 F500.00
G01 X98.9648 Y-54.2881 F500.00
G01 X98.9823 Y-54.2601 F500.00
G01 X98.9905 Y-54.2457 F500.00
G01 X99.0059 Y-54.2165 F500.00
G01 X99.0131 Y-54.2015 F500.00
G01 X99.0263 Y-54.1712 F500.00
G01 X99.0323 Y-54.1558 F500.00
G01 X99.0379 Y-54.1402 F500.00
G01 X99.0480 Y-54.1088 F500.00
G01 X99.0723 Y-54.0254 F500.00
G01 X99.0798 Y-53.9946 F500.00
G01 X99.0858 Y-53.9634 F500.00
G01 X99.0882 Y-53.9478 F500.00
G01 X99.0920 Y-53.9163 F500.00
G01 X99.0933 Y-53.9005 F500.00
G01 X99.0942 Y-53.8847 F500.00
G01 X99.0950 Y-53.8530 F500.00
G01 X99.0950 Y-0.3760 F500.00
G01 X99.0948 Y-0.3602 F500.00
G01 X99.0933 Y-0.3285 F500.00
G01 X99.0903 Y-0.2969 F500.00
G01 X99.0882 Y-0.2812 F500.00
G01 X99.0830 Y-0.2500 F500.00
G01 X99.0647 Y-0.1659 F500.00
G01 X99.0560 Y-0.1337 F500.00
G01 X99.0510 Y-0.1179 F500.00
G01 X99.0399 Y-0.0865 F500.00
G01 X99.0273 Y-0.0557 F500.00
G01 X99.0204 Y-0.0405 F500.00
G01 X99.0055 Y-0.0108 F500.00
G01 X98.9975 Y0.0038 F500.00
G01 X98.9804 Y0.0324 F500.00
G01 X98.9714 Y0.0464 F500.00
G01 X98.9620 Y0.0601 F500.00
G01 X98.9421 Y0.0868 F500.00
G01 X98.9209 Y0.1125 F500.00
G01 X98.8745 Y0.1661 F500.00
G01 X98.8522 Y0.1906 F500.00
G01 X98.8406 Y0.2024 F500.00
G01 X98.8166 Y0.2251 F500.00
G01 X98.7914 Y0.2466 F500.00
G01 X98.7785 Y0.2569 F500.00
G01 X98.7653 Y0.2669 F500.00
G01 X98.7381 Y0.2858 F500.00
G01 X98.7101 Y0.3033 F500.00
G01 X98.6957 Y0.3115 F500.00
G01 X98.6665 Y0.3269 F500.00
G01 X98.6515 Y0.3341 F500.00
G01 X98.6365 Y0.3409 F500.00
G01 X98.6058 Y0.3533 F500.00
G01 X98.5746 Y0.3642 F500.00
G01 X98.5588 Y0.3690 F500.00
G01 X98.4754 Y0.3933 F500.00
G01 X98.4446 Y0.4008 F500.00
G01 X98.4290 Y0.4040 F500.00
G01 X98.4134 Y0.4068 F500.00
G01 X98.3821 Y0.4113 F500.00
G01 X98.3505 Y0.4143 F500.00
G01 X98.3188 Y0.4158 F500.00
G01 X98.3030 Y0.4160 F500.00
G01 X0.3760 Y0.4160 F500.00
G01 X0.3443 Y0.4152 F500.00
G01 X0.3127 Y0.4130 F500.00
G01 X0.2812 Y0.4092 F500.00
G01 X0.2500 Y0.4040 F500.00
G01 X0.1821 Y0.3894 F500.00
G01 X0.1498 Y0.3815 F500.00
G01 X0.1179 Y0.3720 F500.00
G01 X0.1021 Y0.3667 F500.00
G01 X0.0710 Y0.3548 F500.00
G01 X0.0405 Y0.3414 F500.00
G01 X0.0108 Y0.3265 F500.00
G01 X-0.0182 Y0.3102 F500.00
G01 X-0.0464 Y0.2924 F500.00
G01 X-0.0736 Y0.2732 F500.00
G01 X-0.0998 Y0.2527 F500.00
G01 X-0.1661 Y0.1955 F500.00
G01 X-0.1906 Y0.1732 F500.00
G01 X-0.2139 Y0.1497 F500.00
G01 X-0.2360 Y0.1251 F500.00
G01 X-0.2569 Y0.0995 F500.00
G01 X-0.2765 Y0.0728 F500.00
G01 X-0.2858 Y0.0591 F500.00
G01 X-0.3033 Y0.0311 F500.00
G01 X-0.3194 Y0.0022 F500.00
G01 X-0.3341 Y-0.0275 F500.00
G01 X-0.3409 Y-0.0425 F500.00
G01 X-0.3533 Y-0.0732 F500.00
G01 X-0.3642 Y-0.1044 F500.00
G01 X-0.3933 Y-0.2036 F500.00
G01 X-0.4008 Y-0.2344 F500.00
G01 X-0.4068 Y-0.2656 F500.00
G00 Z2.0000
G00 X-0.5488 Y-0.2417
G01 F300.00
G01 Z-0.0693
G01 F500.00
G01 X-0.5543 Y-0.2798 F500.00
G01 X-0.5579 Y-0.3182 F500.00
G01 X-0.5598 Y-0.3567 F500.00
G01 X-0.5600 Y-0.3760 F500.00
G01 X-0.5600 Y-53.8530 F500.00
G01 X-0.5598 Y-53.8723 F500.00
G01 X-0.5579 Y-53.9108 F500.00
G01 X-0.5543 Y-53.9492 F500.00
G01 X-0.5518 Y-53.9683 F500.00
G01 X-0.5488 Y-53.9873 F500.00
G01 X-0.5415 Y-54.0252 F500.00
G01 X-0.5301 Y-54.0775 F500.00
G01 X-0.5256 Y-54.0972 F500.00
G01 X-0.5205 Y-54.1168 F500.00
G01 X-0.5150 Y-54.1363 F500.00
G01 X-0.5090 Y-54.1556 F500.00
G01 X-0.5025 Y-54.1748 F500.00
G01 X-0.4955 Y-54.1938 F500.00
G01 X-0.4881 Y-54.2126 F500.00
G01 X-0.4801 Y-54.2313 F500.00
G01 X-0.4718 Y-54.2497 F500.00
G01 X-0.4629 Y-54.2679 F500.00
G01 X-0.4537 Y-54.2859 F500.00
G01 X-0.4439 Y-54.3036 F500.00
G01 X-0.4337 Y-54.3211 F500.00
G01 X-0.4231 Y-54.3384 F500.00
G01 X-0.4121 Y-54.3554 F500.00
G01 X-0.4007 Y-54.3720 F500.00
G01 X-0.3888 Y-54.3884 F500.00
G01 X-0.3765 Y-54.4045 F500.00
G01 X-0.3638 Y-54.4203 F500.00
G01 X-0.3508 Y-54.4358 F500.00
G01 X-0.2909 Y-54.5045 F500.00
G01 X-0.2631 Y-54.5335 F500.00
G01 X-0.2487 Y-54.5475 F500.00
G01 X-0.2187 Y-54.5744 F500.00
G01 X-0.2033 Y-54.5873 F500.00
G01 X-0.1715 Y-54.6119 F500.00
G01 X-0.1385 Y-54.6349 F500.00
G01 X-0.1215 Y-54.6458 F500.00
G01 X-0.0869 Y-54.6663 F500.00
G01 X-0.0513 Y-54.6850 F500.00
G01 X-0.0332 Y-54.6937 F500.00
G01 X-0.0148 Y-54.7019 F500.00
G01 X0.0225 Y-54.7170 F500.00
G01 X0.0604 Y-54.7303 F500.00
G01 X0.1664 Y-54.7614 F500.00
G01 X0.2038 Y-54.7705 F500.00
G01 X0.2227 Y-54.7744 F500.00
G01 X0.2607 Y-54.7808 F500.00
G01 X0.2990 Y-54.7853 F500.00
G01 X0.3182 Y-54.7869 F500.00
G01 X0.3567 Y-54.7888 F500.00
G01 X0.3760 Y-54.7890 F500.00
G01 X62.1865 Y-54.7890 F500.00
G01 X62.2110 Y-54.7956 F500.00
G01 X62.2776 Y-54.8123 F500.00
G01 X62.3164 Y-54.8210 F500.00
G01 X62.3556 Y-54.8278 F500.00
G01 X62.4235 Y-54.8379 F500.00
G01 X62.4630 Y-54.8427 F500.00
G01 X62.4828 Y-54.8444 F500.00
G01 X62.5713 Y-54.8490 F500.00
G01 X62.6110 Y-54.8500 F500.00
G01 X62.6507 Y-54.8490 F500.00
G01 X62.7392 Y-54.8444 F500.00
G01 X62.7590 Y-54.8427 F500.00
G01 X62.7985 Y-54.8379 F500.00
G01 X62.8664 Y-54.8278 F500.00
G01 X62.9056 Y-54.8210 F500.00
G01 X62.9444 Y-54.8123 F500.00
G01 X63.0110 Y-54.7956 F500.00
G01 X63.0355 Y-54.7890 F500.00
G01 X98.3030 Y-54.7890 F500.00
G01 X98.3223 Y-54.7888 F500.00
G01 X98.3608 Y-54.7869 F500.00
G01 X98.3992 Y-54.7833 F500.00
G01 X98.4183 Y-54.7808 F500.00
G01 X98.4373 Y-54.7778 F500.00
G01 X98.4752 Y-54.7705 F500.00
G01 X98.5275 Y-54.7591 F500.00
G01 X98.5472 Y-54.7546 F500.00
G01 X98.5668 Y-54.7495 F500.00
G01 X98.5863 Y-54.7440 F500.00
G01 X98.6056 Y-54.7380 F500.00
G01 X98.6248 Y-54.7315 F500.00
G01 X98.6438 Y-54.7245 F500.00
G01 X98.6626 Y-54.7171 F500.00
G01 X98.6813 Y-54.7091 F500.00
G01 X98.6997 Y-54.7008 F500.00
G01 X98.7179 Y-54.6919 F500.00
G01 X98.7359 Y-54.6827 F500.00
G01 X98.7536 Y-54.6729 F500.00
G01 X98.7711 Y-54.6627 F500.00
G01 X98.7884 Y-54.6521 F500.00
G01 X98.8054 Y-54.6411 F500.00
G01 X98.8220 Y-54.6297 F500.00
G01 X98.8384 Y-54.6178 F500.00
G01 X98.8545 Y-54.6055 F500.00
G01 X98.8703 Y-54.5928 F500.00
G01 X98.8858 Y-54.5798 F500.00
G01 X98.9545 Y-54.5199 F500.00
G01 X98.9835 Y-54.4921 F500.00
G01 X99.0112 Y-54.4629 F500.00
G01 X99.0244 Y-54.4477 F500.00
G01 X99.0498 Y-54.4165 F500.00
G01 X99.0736 Y-54.3841 F500.00
G01 X99.0849 Y-54.3675 F500.00
G01 X99.0958 Y-54.3505 F500.00
G01 X99.1163 Y-54.3159 F500.00
G01 X99.1259 Y-54.2982 F500.00
G01 X99.1437 Y-54.2622 F500.00
G01 X99.1597 Y-54.2253 F500.00
G01 X99.1670 Y-54.2065 F500.00
G01 X99.1803 Y-54.1686 F500.00
G01 X99.2114 Y-54.0626 F500.00
G01 X99.2162 Y-54.0440 F500.00
G01 X99.2244 Y-54.0063 F500.00
G01 X99.2278 Y-53.9873 F500.00
G01 X99.2333 Y-53.9492 F500.00
G01 X99.2369 Y-53.9108 F500.00
G01 X99.2381 Y-53.8915 F500.00
G01 X99.2390 Y-53.8530 F500.00
G01 X99.2390 Y-0.3760 F500.00
G01 X99.2388 Y-0.3567 F500.00
G01 X99.2369 Y-0.3182 F500.00
G01 X99.2333 Y-0.2798 F500.00
G01 X99.2308 Y-0.2607 F500.00
G01 X99.2278 Y-0.2417 F500.00
G01 X99.2205 Y-0.2038 F500.00
G01 X99.2091 Y-0.1515 F500.00
G01 X99.2046 Y-0.1318 F500.00
G01 X99.1995 Y-0.1122 F500.00
G01 X99.1940 Y-0.0927 F500.00
G01 X99.1880 Y-0.0734 F500.00
G01 X99.1815 Y-0.0542 F500.00
G01 X99.1745 Y-0.0352 F500.00
G01 X99.1671 Y-0.0164 F500.00
G01 X99.1591 Y0.0023 F500.00
G01 X99.1508 Y0.0207 F500.00
G01 X99.1419 Y0.0389 F500.00
G01 X99.1327 Y0.0569 F500.00
G01 X99.1229 Y0.0746 F500.00
G01 X99.1127 Y0.0921 F500.00
G01 X99.1021 Y0.1094 F500.00
G01 X99.0911 Y0.1264 F500.00
G01 X99.0797 Y0.1430 F500.00
G01 X99.0678 Y0.1594 F500.00
G01 X99.0555 Y0.1755 F500.00
G01 X99.0428 Y0.1913 F500.00
G01 X99.0298 Y0.2068 F500.00
G01 X98.9699 Y0.2755 F500.00
G01 X98.9421 Y0.3045 F500.00
G01 X98.9277 Y0.3185 F500.00
G01 X98.8977 Y0.3454 F500.00
G01 X98.8665 Y0.3708 F500.00
G01 X98.8341 Y0.3946 F500.00
G01 X98.8175 Y0.4059 F500.00
G01 X98.8005 Y0.4168 F500.00
G01 X98.7659 Y0.4373 F500.00
G01 X98.7482 Y0.4469 F500.00
G01 X98.7122 Y0.4647 F500.00
G01 X98.6938 Y0.4729 F500.00
G01 X98.6565 Y0.4880 F500.00
G01 X98.6186 Y0.5013 F500.00
G01 X98.5126 Y0.5324 F500.00
G01 X98.4752 Y0.5415 F500.00
G01 X98.4563 Y0.5454 F500.00
G01 X98.4183 Y0.5518 F500.00
G01 X98.3800 Y0.5563 F500.00
G01 X98.3608 Y0.5579 F500.00
G01 X98.3415 Y0.5591 F500.00
G01 X98.3030 Y0.5600 F500.00
G01 X0.3760 Y0.5600 F500.00
G01 X0.3375 Y0.5591 F500.00
G01 X0.2990 Y0.5563 F500.00
G01 X0.2607 Y0.5518 F500.00
G01 X0.2227 Y0.5454 F500.00
G01 X0.1515 Y0.5301 F500.00
G01 X0.1318 Y0.5256 F500.00
G01 X0.1122 Y0.5205 F500.00
G01 X0.0927 Y0.5150 F500.00
G01 X0.0734 Y0.5090 F500.00
G01 X0.0542 Y0.5025 F500.00
G01 X0.0352 Y0.4955 F500.00
G01 X0.0164 Y0.4881 F500.00
G01 X-0.0023 Y0.4801 F500.00
G01 X-0.0207 Y0.4718 F500.00
G01 X-0.0389 Y0.4629 F500.00
G01 X-0.0569 Y0.4537 F500.00
G01 X-0.0746 Y0.4439 F500.00
G01 X-0.0921 Y0.4337 F500.00
G01 X-0.1094 Y0.4231 F500.00
G01 X-0.1264 Y0.4121 F500.00
G01 X-0.1430 Y0.4007 F500.00
G01 X-0.1594 Y0.3888 F500.00
G01 X-0.1755 Y0.3765 F500.00
G01 X-0.1913 Y0.3638 F500.00
G01 X-0.2604 Y0.3043 F500.00
G01 X-0.2902 Y0.2772 F500.00
G01 X-0.3185 Y0.2487 F500.00
G01 X-0.3454 Y0.2187 F500.00
G01 X-0.3708 Y0.1875 F500.00
G01 X-0.3829 Y0.1715 F500.00
G01 X-0.4059 Y0.1385 F500.00
G01 X-0.4273 Y0.1044 F500.00
G01 X-0.4469 Y0.0692 F500.00
G01 X-0.4560 Y0.0513 F500.00
G01 X-0.4729 Y0.0148 F500.00
G01 X-0.4880 Y-0.0225 F500.00
G01 X-0.5013 Y-0.0604 F500.00
G01 X-0.5324 Y-0.1664 F500.00
G01 X-0.5415 Y-0.2038 F500.00
G01 X-0.5488 Y-0.2417 F500.00
G00 Z2.0000
G00 X-0.6908 Y-0.2178
G01 F300.00
G01 Z-0.0693
G01 F500.00
G01 X-0.6943 Y-0.2402 F500.00
G01 X-0.6973 Y-0.2627 F500.00
G01 X-0.6997 Y-0.2853 F500.00
G01 X-0.7016 Y-0.3079 F500.00
G01 X-0.7029 Y-0.3306 F500.00
G01 X-0.7037 Y-0.3533 F500.00
G01 X-0.7040 Y-0.3760 F500.00
G01 X-0.7040 Y-53.8530 F500.00
G01 X-0.7037 Y-53.8757 F500.00
G01 X-0.7029 Y-53.8984 F500.00
G01 X-0.7016 Y-53.9211 F500.00
G01 X-0.6997 Y-53.9437 F500.00
G01 X-0.6973 Y-53.9663 F500.00
G01 X-0.6943 Y-53.9888 F500.00
G01 X-0.6908 Y-54.0112 F500.00
G01 X-0.6868 Y-54.0335 F500.00
G01 X-0.6822 Y-54.0558 F500.00
G01 X-0.6708 Y-54.1081 F500.00
G01 X-0.6655 Y-54.1314 F500.00
G01 X-0.6595 Y-54.1544 F500.00
G01 X-0.6530 Y-54.1774 F500.00
G01 X-0.6459 Y-54.2001 F500.00
G01 X-0.6383 Y-54.2227 F500.00
G01 X-0.6301 Y-54.2451 F500.00
G01 X-0.6213 Y-54.2673 F500.00
G01 X-0.6120 Y-54.2892 F500.00
G01 X-0.6021 Y-54.3109 F500.00
G01 X-0.5917 Y-54.3324 F500.00
G01 X-0.5808 Y-54.3535 F500.00
G01 X-0.5693 Y-54.3745 F500.00
G01 X-0.5573 Y-54.3951 F500.00
G01 X-0.5448 Y-54.4154 F500.00
G01 X-0.5318 Y-54.4354 F500.00
G01 X-0.5183 Y-54.4550 F500.00
G01 X-0.5044 Y-54.4743 F500.00
G01 X-0.4899 Y-54.4933 F500.00
G01 X-0.4750 Y-54.5119 F500.00
G01 X-0.4596 Y-54.5301 F500.00
G01 X-0.4131 Y-54.5837 F500.00
G01 X-0.3974 Y-54.6014 F500.00
G01 X-0.3812 Y-54.6188 F500.00
G01 X-0.3646 Y-54.6357 F500.00
G01 X-0.3476 Y-54.6522 F500.00
G01 X-0.3302 Y-54.6682 F500.00
G01 X-0.3124 Y-54.6838 F500.00
G01 X-0.2942 Y-54.6990 F500.00
G01 X-0.2756 Y-54.7137 F500.00
G01 X-0.2567 Y-54.7280 F500.00
G01 X-0.2374 Y-54.7418 F500.00
G01 X-0.2178 Y-54.7551 F500.00
G01 X-0.1979 Y-54.7679 F500.00
G01 X-0.1776 Y-54.7802 F500.00
G01 X-0.1571 Y-54.7920 F500.00
G01 X-0.1363 Y-54.8033 F500.00
G01 X-0.1152 Y-54.8141 F500.00
G01 X-0.0938 Y-54.8243 F500.00
G01 X-0.0722 Y-54.8340 F500.00
G01 X-0.0503 Y-54.8432 F500.00
G01 X-0.0283 Y-54.8518 F500.00
G01 X-0.0060 Y-54.8599 F500.00
G01 X0.0165 Y-54.8674 F500.00
G01 X0.0391 Y-54.8744 F500.00
G01 X0.1072 Y-54.8944 F500.00
G01 X0.1291 Y-54.9005 F500.00
G01 X0.1511 Y-54.9061 F500.00
G01 X0.1732 Y-54.9112 F500.00
G01 X0.1955 Y-54.9158 F500.00
G01 X0.2178 Y-54.9198 F500.00
G01 X0.2402 Y-54.9233 F500.00
G01 X0.2627 Y-54.9263 F500.00
G01 X0.2853 Y-54.9287 F500.00
G01 X0.3079 Y-54.9306 F500.00
G01 X0.3306 Y-54.9319 F500.00
G01 X0.3533 Y-54.9327 F500.00
G01 X0.3760 Y-54.9330 F500.00
G01 X62.1674 Y-54.9330 F500.00
G01 X62.2426 Y-54.9520 F500.00
G01 X62.2654 Y-54.9574 F500.00
G01 X62.2883 Y-54.9622 F500.00
G01 X62.3113 Y-54.9665 F500.00
G01 X62.3345 Y-54.9702 F500.00
G01 X62.4024 Y-54.9803 F500.00
G01 X62.4256 Y-54.9835 F500.00
G01 X62.4489 Y-54.9860 F500.00
G01 X62.4722 Y-54.9880 F500.00
G01 X62.5642 Y-54.9929 F500.00
G01 X62.5876 Y-54.9937 F500.00
G01 X62.6110 Y-54.9940 F500.00
G01 X62.6344 Y-54.9937 F500.00
G01 X62.6578 Y-54.9929 F500.00
G01 X62.7498 Y-54.9880 F500.00
G01 X62.7731 Y-54.9860 F500.00
G01 X62.7964 Y-54.9835 F500.00
G01 X62.8196 Y-54.9803 F500.00
G01 X62.8875 Y-54.9702 F500.00
G01 X62.9107 Y-54.9665 F500.00
G01 X62.9337 Y-54.9622 F500.00
G01 X62.9566 Y-54.9574 F500.00
G01 X62.9794 Y-54.9520 F500.00
G01 X63.0546 Y-54.9330 F500.00
G01 X98.3030 Y-54.9330 F500.00
G01 X98.3257 Y-54.9327 F500.00
G01 X98.3484 Y-54.9319 F500.00
G01 X98.3711 Y-54.9306 F500.00
G01 X98.3937 Y-54.9287 F500.00
G01 X98.4163 Y-54.9263 F500.00
G01 X98.4388 Y-54.9233 F500.00
G01 X98.4612 Y-54.9198 F500.00
G01 X98.4835 Y-54.9158 F500.00
G01 X98.5058 Y-54.9112 F500.00
G01 X98.5581 Y-54.8998 F500.00
G01 X98.5814 Y-54.8945 F500.00
G01 X98.6044 Y-54.8885 F500.00
G01 X98.6274 Y-54.8820 F500.00
G01 X98.6501 Y-54.8749 F500.00
G01 X98.6727 Y-54.8673 F500.00
G01 X98.6951 Y-54.8591 F500.00
G01 X98.7173 Y-54.8503 F500.00
G01 X98.7392 Y-54.8410 F500.00
G01 X98.7609 Y-54.8311 F500.00
G01 X98.7824 Y-54.8207 F500.00
G01 X98.8035 Y-54.8098 F500.00
G01 X98.8245 Y-54.7983 F500.00
G01 X98.8451 Y-54.7863 F500.00
G01 X98.8654 Y-54.7738 F500.00
G01 X98.8854 Y-54.7608 F500.00
G01 X98.9050 Y-54.7473 F500.00
G01 X98.9243 Y-54.7334 F500.00
G01 X98.9433 Y-54.7189 F500.00
G01 X98.9619 Y-54.7040 F500.00
G01 X98.9801 Y-54.6886 F500.00
G01 X99.0337 Y-54.6421 F500.00
G01 X99.0514 Y-54.6264 F500.00
G01 X99.0688 Y-54.6102 F500.00
G01 X99.0857 Y-54.5936 F500.00
G01 X99.1022 Y-54.5766 F500.00
G01 X99.1182 Y-54.5592 F500.00
G01 X99.1338 Y-54.5414 F500.00
G01 X99.1490 Y-54.5232 F500.00
G01 X99.1637 Y-54.5046 F500.00
G01 X99.1780 Y-54.4857 F500.00
G01 X99.1918 Y-54.4664 F500.00
G01 X99.2051 Y-54.4468 F500.00
G01 X99.2179 Y-54.4269 F500.00
G01 X99.2302 Y-54.4066 F500.00
G01 X99.2420 Y-54.3861 F500.00
G01 X99.2533 Y-54.3653 F500.00
G01 X99.2641 Y-54.3442 F500.00
G01 X99.2743 Y-54.3228 F500.00
G01 X99.2840 Y-54.3012 F500.00
G01 X99.2932 Y-54.2793 F500.00
G01 X99.3018 Y-54.2573 F500.00
G01 X99.3099 Y-54.2350 F500.00
G01 X99.3174 Y-54.2125 F500.00
G01 X99.3244 Y-54.1899 F500.00
G01 X99.3444 Y-54.1218 F500.00
G01 X99.3505 Y-54.0999 F500.00
G01 X99.3561 Y-54.0779 F500.00
G01 X99.3612 Y-54.0558 F500.00
G01 X99.3658 Y-54.0335 F500.00
G01 X99.3698 Y-54.0112 F500.00
G01 X99.3733 Y-53.9888 F500.00
G01 X99.3763 Y-53.9663 F500.00
G01 X99.3787 Y-53.9437 F500.00
G01 X99.3806 Y-53.9211 F500.00
G01 X99.3819 Y-53.8984 F500.00
G01 X99.3827 Y-53.8757 F500.00
G01 X99.3830 Y-53.8530 F500.00
G01 X99.3830 Y-0.3760 F500.00
G01 X99.3827 Y-0.3533 F500.00
G01 X99.3819 Y-0.3306 F500.00
G01 X99.3806 Y-0.3079 F500.00
G01 X99.3787 Y-0.2853 F500.00
G01 X99.3763 Y-0.2627 F500.00
G01 X99.3733 Y-0.2402 F500.00
G01 X99.3698 Y-0.2178 F500.00
G01 X99.3658 Y-0.1955 F500.00
G01 X99.3612 Y-0.1732 F500.00
G01 X99.3498 Y-0.1209 F500.00
G01 X99.3445 Y-0.0976 F500.00
G01 X99.3385 Y-0.0746 F500.00
G01 X99.3320 Y-0.0516 F500.00
G01 X99.3249 Y-0.0289 F500.00
G01 X99.3173 Y-0.0063 F500.00
G01 X99.3091 Y0.0161 F500.00
G01 X99.3003 Y0.0383 F500.00
G01 X99.2910 Y0.0602 F500.00
G01 X99.2811 Y0.0819 F500.00
G01 X99.2707 Y0.1034 F500.00
G01 X99.2598 Y0.1245 F500.00
G01 X99.2483 Y0.1455 F500.00
G01 X99.2363 Y0.1661 F500.00
G01 X99.2238 Y0.1864 F500.00
G01 X99.2108 Y0.2064 F500.00
G01 X99.1973 Y0.2260 F500.00
G01 X99.1834 Y0.2453 F500.00
G01 X99.1689 Y0.2643 F500.00
G01 X99.1540 Y0.2829 F500.00
G01 X99.1386 Y0.3011 F500.00
G01 X99.0921 Y0.3547 F500.00
G01 X99.0764 Y0.3724 F500.00
G01 X99.0602 Y0.3898 F500.00
G01 X99.0436 Y0.4067 F500.00
G01 X99.0266 Y0.4232 F500.00
G01 X99.0092 Y0.4392 F500.00
G01 X98.9914 Y0.4548 F500.00
G01 X98.9732 Y0.4700 F500.00
G01 X98.9546 Y0.4847 F500.00
G01 X98.9357 Y0.4990 F500.00
G01 X98.9164 Y0.5128 F500.00
G01 X98.8968 Y0.5261 F500.00
G01 X98.8769 Y0.5389 F500.00
G01 X98.8566 Y0.5512 F500.00
G01 X98.8361 Y0.5630 F500.00
G01 X98.8153 Y0.5743 F500.00
G01 X98.7942 Y0.5851 F500.00
G01 X98.7728 Y0.5953 F500.00
G01 X98.7512 Y0.6050 F500.00
G01 X98.7293 Y0.6142 F500.00
G01 X98.7073 Y0.6228 F500.00
G01 X98.6850 Y0.6309 F500.00
G01 X98.6625 Y0.6384 F500.00
G01 X98.6399 Y0.6454 F500.00
G01 X98.5718 Y0.6654 F500.00
G01 X98.5499 Y0.6715 F500.00
G01 X98.5279 Y0.6771 F500.00
G01 X98.5058 Y0.6822 F500.00
G01 X98.4835 Y0.6868 F500.00
G01 X98.4612 Y0.6908 F500.00
G01 X98.4388 Y0.6943 F500.00
G01 X98.4163 Y0.6973 F500.00
G01 X98.3937 Y0.6997 F500.00
G01 X98.3711 Y0.7016 F500.00
G01 X98.3484 Y0.7029 F500.00
G01 X98.3257 Y0.7037 F500.00
G01 X98.3030 Y0.7040 F500.00
G01 X0.3760 Y0.7040 F500.00
G01 X0.3533 Y0.7037 F500.00
G01 X0.3306 Y0.7029 F500.00
G01 X0.3079 Y0.7016 F500.00
G01 X0.2853 Y0.6997 F500.00
G01 X0.2627 Y0.6973 F500.00
G01 X0.2402 Y0.6943 F500.00
G01 X0.2178 Y0.6908 F500.00
G01 X0.1955 Y0.6868 F500.00
G01 X0.1732 Y0.6822 F500.00
G01 X0.0976 Y0.6655 F500.00
G01 X0.0746 Y0.6595 F500.00
G01 X0.0516 Y0.6530 F500.00
G01 X0.0289 Y0.6459 F500.00
G01 X0.0063 Y0.6383 F500.00
G01 X-0.0161 Y0.6301 F500.00
G01 X-0.0383 Y0.6213 F500.00
G01 X-0.0602 Y0.6120 F500.00
G01 X-0.0819 Y0.6021 F500.00
G01 X-0.1034 Y0.5917 F500.00
G01 X-0.1245 Y0.5808 F500.00
G01 X-0.1455 Y0.5693 F500.00
G01 X-0.1661 Y0.5573 F500.00
G01 X-0.1864 Y0.5448 F500.00
G01 X-0.2064 Y0.5318 F500.00
G01 X-0.2260 Y0.5183 F500.00
G01 X-0.2453 Y0.5044 F500.00
G01 X-0.2643 Y0.4899 F500.00
G01 X-0.2829 Y0.4750 F500.00
G01 X-0.3011 Y0.4596 F500.00
G01 X-0.3547 Y0.4131 F500.00
G01 X-0.3724 Y0.3974 F500.00
G01 X-0.3898 Y0.3812 F500.00
G01 X-0.4067 Y0.3646 F500.00
G01 X-0.4232 Y0.3476 F500.00
G01 X-0.4392 Y0.3302 F500.00
G01 X-0.4548 Y0.3124 F500.00
G01 X-0.4700 Y0.2942 F500.00
G01 X-0.4847 Y0.2756 F500.00
G01 X-0.4990 Y0.2567 F500.00
G01 X-0.5128 Y0.2374 F500.00
G01 X-0.5261 Y0.2178 F500.00
G01 X-0.5389 Y0.1979 F500.00
G01 X-0.5512 Y0.1776 F500.00
G01 X-0.5630 Y0.1571 F500.00
G01 X-0.5743 Y0.1363 F500.00
G01 X-0.5851 Y0.1152 F500.00
G01 X-0.5953 Y0.0938 F500.00
G01 X-0.6050 Y0.0722 F500.00
G01 X-0.6142 Y0.0503 F500.00
G01 X-0.6228 Y0.0283 F500.00
G01 X-0.6309 Y0.0060 F500.00
G01 X-0.6384 Y-0.0165 F500.00
G01 X-0.6454 Y-0.0391 F500.00
G01 X-0.6715 Y-0.1291 F500.00
G01 X-0.6771 Y-0.1511 F500.00
G01 X-0.6822 Y-0.1732 F500.00
G01 X-0.6868 Y-0.1955 F500.00
G01 X-0.6908 Y-0.2178 F500.00
G00 Z2.0000
G00 X-0.8328 Y-0.1939
G01 F300.00
G01 Z-0.0693
G01 F500.00
G01 X-0.8368 Y-0.2197 F500.00
G01 X-0.8402 Y-0.2456 F500.00
G01 X-0.8430 Y-0.2716 F500.00
G01 X-0.8452 Y-0.2977 F500.00
G01 X-0.8468 Y-0.3238 F500.00
G01 X-0.8477 Y-0.3499 F500.00
G01 X-0.8480 Y-0.3760 F500.00
G01 X-0.8480 Y-53.8530 F500.00
G01 X-0.8477 Y-53.8791 F500.00
G01 X-0.8468 Y-53.9052 F500.00
G01 X-0.8452 Y-53.9313 F500.00
G01 X-0.8430 Y-53.9574 F500.00
G01 X-0.8402 Y-53.9834 F500.00
G01 X-0.8368 Y-54.0093 F500.00
G01 X-0.8328 Y-54.0351 F500.00
G01 X-0.8282 Y-54.0608 F500.00
G01 X-0.8229 Y-54.0864 F500.00
G01 X-0.8054 Y-54.1655 F500.00
G01 X-0.7985 Y-54.1920 F500.00
G01 X-0.7910 Y-54.2184 F500.00
G01 X-0.7829 Y-54.2446 F500.00
G01 X-0.7741 Y-54.2706 F500.00
G01 X-0.7646 Y-54.2964 F500.00
G01 X-0.7545 Y-54.3219 F500.00
G01 X-0.7438 Y-54.3472 F500.00
G01 X-0.7324 Y-54.3721 F500.00
G01 X-0.7205 Y-54.3968 F500.00
G01 X-0.7079 Y-54.4212 F500.00
G01 X-0.6947 Y-54.4453 F500.00
G01 X-0.6809 Y-54.4690 F500.00
G01 X-0.6665 Y-54.4924 F500.00
G01 X-0.6516 Y-54.5154 F500.00
G01 X-0.6360 Y-54.5380 F500.00
G01 X-0.6200 Y-54.5602 F500.00
G01 X-0.6033 Y-54.5820 F500.00
G01 X-0.5861 Y-54.6034 F500.00
G01 X-0.5684 Y-54.6244 F500.00
G01 X-0.5038 Y-54.6984 F500.00
G01 X-0.4852 Y-54.7183 F500.00
G01 X-0.4661 Y-54.7378 F500.00
G01 X-0.4465 Y-54.7568 F500.00
G01 X-0.4265 Y-54.7753 F500.00
G01 X-0.4060 Y-54.7933 F500.00
G01 X-0.3851 Y-54.8107 F500.00
G01 X-0.3637 Y-54.8277 F500.00
G01 X-0.3419 Y-54.8441 F500.00
G01 X-0.3197 Y-54.8599 F500.00
G01 X-0.2972 Y-54.8753 F500.00
G01 X-0.2742 Y-54.8900 F500.00
G01 X-0.2509 Y-54.9042 F500.00
G01 X-0.2273 Y-54.9177 F500.00
G01 X-0.2033 Y-54.9307 F500.00
G01 X-0.1790 Y-54.9431 F500.00
G01 X-0.1544 Y-54.9549 F500.00
G01 X-0.1296 Y-54.9661 F500.00
G01 X-0.1044 Y-54.9766 F500.00
G01 X-0.0790 Y-54.9866 F500.00
G01 X-0.0534 Y-54.9959 F500.00
G01 X-0.0275 Y-55.0045 F500.00
G01 X-0.0015 Y-55.0125 F500.00
G01 X0.0667 Y-55.0325 F500.00
G01 X0.0918 Y-55.0396 F500.00
G01 X0.1171 Y-55.0460 F500.00
G01 X0.1426 Y-55.0519 F500.00
G01 X0.1682 Y-55.0572 F500.00
G01 X0.1939 Y-55.0618 F500.00
G01 X0.2197 Y-55.0658 F500.00
G01 X0.2456 Y-55.0692 F500.00
G01 X0.2716 Y-55.0720 F500.00
G01 X0.2977 Y-55.0742 F500.00
G01 X0.3238 Y-55.0758 F500.00
G01 X0.3499 Y-55.0767 F500.00
G01 X0.3760 Y-55.0770 F500.00
G01 X62.1492 Y-55.0770 F500.00
G01 X62.2076 Y-55.0916 F500.00
G01 X62.2339 Y-55.0979 F500.00
G01 X62.2602 Y-55.1035 F500.00
G01 X62.2867 Y-55.1084 F500.00
G01 X62.3133 Y-55.1127 F500.00
G01 X62.4080 Y-55.1264 F500.00
G01 X62.4348 Y-55.1293 F500.00
G01 X62.4616 Y-55.1317 F500.00
G01 X62.4885 Y-55.1333 F500.00
G01 X62.5571 Y-55.1367 F500.00
G01 X62.5841 Y-55.1377 F500.00
G01 X62.6110 Y-55.1380 F500.00
G01 X62.6379 Y-55.1377 F500.00
G01 X62.6649 Y-55.1367 F500.00
G01 X62.7335 Y-55.1333 F500.00
G01 X62.7604 Y-55.1317 F500.00
G01 X62.7872 Y-55.1293 F500.00
G01 X62.8140 Y-55.1264 F500.00
G01 X62.9087 Y-55.1127 F500.00
G01 X62.9353 Y-55.1084 F500.00
G01 X62.9618 Y-55.1035 F500.00
G01 X62.9881 Y-55.0979 F500.00
G01 X63.0144 Y-55.0916 F500.00
G01 X63.0728 Y-55.0770 F500.00
G01 X98.3030 Y-55.0770 F500.00
G01 X98.3291 Y-55.0767 F500.00
G01 X98.3552 Y-55.0758 F500.00
G01 X98.3813 Y-55.0742 F500.00
G01 X98.4074 Y-55.0720 F500.00
G01 X98.4334 Y-55.0692 F500.00
G01 X98.4593 Y-55.0658 F500.00
G01 X98.4851 Y-55.0618 F500.00
G01 X98.5108 Y-55.0572 F500.00
G01 X98.5364 Y-55.0519 F500.00
G01 X98.6155 Y-55.0344 F500.00
G01 X98.6420 Y-55.0275 F500.00
G01 X98.6684 Y-55.0200 F500.00
G01 X98.6946 Y-55.0119 F500.00
G01 X98.7206 Y-55.0031 F500.00
G01 X98.7464 Y-54.9936 F500.00
G01 X98.7719 Y-54.9835 F500.00
G01 X98.7972 Y-54.9728 F500.00
G01 X98.8221 Y-54.9614 F500.00
G01 X98.8468 Y-54.9495 F500.00
G01 X98.8712 Y-54.9369 F500.00
G01 X98.8953 Y-54.9237 F500.00
G01 X98.9190 Y-54.9099 F500.00
G01 X98.9424 Y-54.8955 F500.00
G01 X98.9654 Y-54.8806 F500.00
G01 X98.9880 Y-54.8650 F500.00
G01 X99.0102 Y-54.8490 F500.00
G01 X99.0320 Y-54.8323 F500.00
G01 X99.0534 Y-54.8151 F500.00
G01 X99.0744 Y-54.7974 F500.00
G01 X99.1484 Y-54.7328 F500.00
G01 X99.1683 Y-54.7142 F500.00
G01 X99.1878 Y-54.6951 F500.00
G01 X99.2068 Y-54.6755 F500.00
G01 X99.2253 Y-54.6555 F500.00
G01 X99.2433 Y-54.6350 F500.00
G01 X99.2607 Y-54.6141 F500.00
G01 X99.2777 Y-54.5927 F500.00
G01 X99.2941 Y-54.5709 F500.00
G01 X99.3099 Y-54.5487 F500.00
G01 X99.3253 Y-54.5262 F500.00
G01 X99.3400 Y-54.5032 F500.00
G01 X99.3542 Y-54.4799 F500.00
G01 X99.3677 Y-54.4563 F500.00
G01 X99.3807 Y-54.4323 F500.00
G01 X99.3931 Y-54.4080 F500.00
G01 X99.4049 Y-54.3834 F500.00
G01 X99.4161 Y-54.3586 F500.00
G01 X99.4266 Y-54.3334 F500.00
G01 X99.4366 Y-54.3080 F500.00
G01 X99.4459 Y-54.2824 F500.00
G01 X99.4545 Y-54.2565 F500.00
G01 X99.4625 Y-54.2305 F500.00
G01 X99.4825 Y-54.1623 F500.00
G01 X99.4896 Y-54.1372 F500.00
G01 X99.4960 Y-54.1119 F500.00
G01 X99.5019 Y-54.0864 F500.00
G01 X99.5072 Y-54.0608 F500.00
G01 X99.5118 Y-54.0351 F500.00
G01 X99.5158 Y-54.0093 F500.00
G01 X99.5192 Y-53.9834 F500.00
G01 X99.5220 Y-53.9574 F500.00
G01 X99.5242 Y-53.9313 F500.00
G01 X99.5258 Y-53.9052 F500.00
G01 X99.5267 Y-53.8791 F500.00
G01 X99.5270 Y-53.8530 F500.00
G01 X99.5270 Y-0.3760 F500.00
G01 X99.5267 Y-0.3499 F500.00
G01 X99.5258 Y-0.3238 F500.00
G01 X99.5242 Y-0.2977 F500.00
G01 X99.5220 Y-0.2716 F500.00
G01 X99.5192 Y-0.2456 F500.00
G01 X99.5158 Y-0.2197 F500.00
G01 X99.5118 Y-0.1939 F500.00
G01 X99.5072 Y-0.1682 F500.00
G01 X99.5019 Y-0.1426 F500.00
G01 X99.4844 Y-0.0635 F500.00
G01 X99.4775 Y-0.0370 F500.00
G01 X99.4700 Y-0.0106 F500.00
G01 X99.4619 Y0.0156 F500.00
G01 X99.4531 Y0.0416 F500.00
G01 X99.4436 Y0.0674 F500.00
G01 X99.4335 Y0.0929 F500.00
G01 X99.4228 Y0.1182 F500.00
G01 X99.4114 Y0.1431 F500.00
G01 X99.3995 Y0.1678 F500.00
G01 X99.3869 Y0.1922 F500.00
G01 X99.3737 Y0.2163 F500.00
G01 X99.3599 Y0.2400 F500.00
G01 X99.3455 Y0.2634 F500.00
G01 X99.3306 Y0.2864 F500.00
G01 X99.3150 Y0.3090 F500.00
G01 X99.2990 Y0.3312 F500.00
G01 X99.2823 Y0.3530 F500.00
G01 X99.2651 Y0.3744 F500.00
G01 X99.2474 Y0.3954 F500.00
G01 X99.1828 Y0.4694 F500.00
G01 X99.1642 Y0.4893 F500.00
G01 X99.1451 Y0.5088 F500.00
G01 X99.1255 Y0.5278 F500.00
G01 X99.1055 Y0.5463 F500.00
G01 X99.0850 Y0.5643 F500.00
G01 X99.0641 Y0.5817 F500.00
G01 X99.0427 Y0.5987 F500.00
G01 X99.0209 Y0.6151 F500.00
G01 X98.9987 Y0.6309 F500.00
G01 X98.9762 Y0.6463 F500.00
G01 X98.9532 Y0.6610 F500.00
G01 X98.9299 Y0.6752 F500.00
G01 X98.9063 Y0.6887 F500.00
G01 X98.8823 Y0.7017 F500.00
G01 X98.8580 Y0.7141 F500.00
G01 X98.8334 Y0.7259 F500.00
G01 X98.8086 Y0.7371 F500.00
G01 X98.7834 Y0.7476 F500.00
G01 X98.7580 Y0.7576 F500.00
G01 X98.7324 Y0.7669 F500.00
G01 X98.7065 Y0.7755 F500.00
G01 X98.6805 Y0.7835 F500.00
G01 X98.6123 Y0.8035 F500.00
G01 X98.5872 Y0.8106 F500.00
G01 X98.5619 Y0.8170 F500.00
G01 X98.5364 Y0.8229 F500.00
G01 X98.5108 Y0.8282 F500.00
G01 X98.4851 Y0.8328 F500.00
G01 X98.4593 Y0.8368 F500.00
G01 X98.4334 Y0.8402 F500.00
G01 X98.4074 Y0.8430 F500.00
G01 X98.3813 Y0.8452 F500.00
G01 X98.3552 Y0.8468 F500.00
G01 X98.3291 Y0.8477 F500.00
G01 X98.3030 Y0.8480 F500.00
G01 X0.3760 Y0.8480 F500.00
G01 X0.3499 Y0.8477 F500.00
G01 X0.3238 Y0.8468 F500.00
G01 X0.2977 Y0.8452 F500.00
G01 X0.2716 Y0.8430 F500.00
G01 X0.2456 Y0.8402 F500.00
G01 X0.2197 Y0.8368 F500.00
G01 X0.1939 Y0.8328 F500.00
G01 X0.1682 Y0.8282 F500.00
G01 X0.1426 Y0.8229 F500.00
G01 X0.0635 Y0.8054 F500.00
G01 X0.0370 Y0.7985 F500.00
G01 X0.0106 Y0.7910 F500.00
G01 X-0.0156 Y0.7829 F500.00
G01 X-0.0416 Y0.7741 F500.00
G01 X-0.0674 Y0.7646 F500.00
G01 X-0.0929 Y0.7545 F500.00
G01 X-0.1182 Y0.7438 F500.00
G01 X-0.1431 Y0.7324 F500.00
G01 X-0.1678 Y0.7205 F500.00
G01 X-0.1922 Y0.7079 F500.00
G01 X-0.2163 Y0.6947 F500.00
G01 X-0.2400 Y0.6809 F500.00
G01 X-0.2634 Y0.6665 F500.00
G01 X-0.2864 Y0.6516 F500.00
G01 X-0.3090 Y0.6360 F500.00
G01 X-0.3312 Y0.6200 F500.00
G01 X-0.3530 Y0.6033 F500.00
G01 X-0.3744 Y0.5861 F500.00
G01 X-0.3954 Y0.5684 F500.00
G01 X-0.4490 Y0.5219 F500.00
G01 X-0.4694 Y0.5038 F500.00
G01 X-0.4893 Y0.4852 F500.00
G01 X-0.5088 Y0.4661 F500.00
G01 X-0.5278 Y0.4465 F500.00
G01 X-0.5463 Y0.4265 F500.00
G01 X-0.5643 Y0.4060 F500.00
G01 X-0.5817 Y0.3851 F500.00
G01 X-0.5987 Y0.3637 F500.00
G01 X-0.6151 Y0.3419 F500.00
G01 X-0.6309 Y0.3197 F500.00
G01 X-0.6463 Y0.2972 F500.00
G01 X-0.6610 Y0.2742 F500.00
G01 X-0.6752 Y0.2509 F500.00
G01 X-0.6887 Y0.2273 F500.00
G01 X-0.7017 Y0.2033 F500.00
G01 X-0.7141 Y0.1790 F500.00
G01 X-0.7259 Y0.1544 F500.00
G01 X-0.7371 Y0.1296 F500.00
G01 X-0.7476 Y0.1044 F500.00
G01 X-0.7576 Y0.0790 F500.00
G01 X-0.7669 Y0.0534 F500.00
G01 X-0.7755 Y0.0275 F500.00
G01 X-0.7835 Y0.0015 F500.00
G01 X-0.8106 Y-0.0918 F500.00
G01 X-0.8170 Y-0.1171 F500.00
G01 X-0.8229 Y-0.1426 F500.00
G01 X-0.8282 Y-0.1682 F500.00
G01 X-0.8328 Y-0.1939 F500.00
G00 Z2.0000
G00 X-0.9748 Y-0.1700
G01 F300.00
G01 Z-0.0693
G01 F500.00
G01 X-0.9794 Y-0.1992 F500.00
G01 X-0.9832 Y-0.2286 F500.00
G01 X-0.9864 Y-0.2579 F500.00
G01 X-0.9888 Y-0.2874 F500.00
G01 X-0.9906 Y-0.3169 F500.00
G01 X-0.9916 Y-0.3464 F500.00
G01 X-0.9920 Y-0.3760 F500.00
G01 X-0.9920 Y-53.8530 F500.00
G01 X-0.9916 Y-53.8826 F500.00
G01 X-0.9906 Y-53.9121 F500.00
G01 X-0.9888 Y-53.9416 F500.00
G01 X-0.9864 Y-53.9711 F500.00
G01 X-0.9832 Y-54.0004 F500.00
G01 X-0.9794 Y-54.0298 F500.00
G01 X-0.9748 Y-54.0590 F500.00
G01 X-0.9696 Y-54.0880 F500.00
G01 X-0.9636 Y-54.1170 F500.00
G01 X-0.9453 Y-54.1996 F500.00
G01 X-0.9375 Y-54.2296 F500.00
G01 X-0.9290 Y-54.2595 F500.00
G01 X-0.9198 Y-54.2891 F500.00
G01 X-0.9099 Y-54.3185 F500.00
G01 X-0.8992 Y-54.3477 F500.00
G01 X-0.8878 Y-54.3765 F500.00
G01 X-0.8756 Y-54.4051 F500.00
G01 X-0.8628 Y-54.4334 F500.00
G01 X-0.8492 Y-54.4613 F500.00
G01 X-0.8350 Y-54.4889 F500.00
G01 X-0.8201 Y-54.5161 F500.00
G01 X-0.8045 Y-54.5429 F500.00
G01 X-0.7882 Y-54.5693 F500.00
G01 X-0.7713 Y-54.5954 F500.00
G01 X-0.7537 Y-54.6209 F500.00
G01 X-0.7355 Y-54.6461 F500.00
G01 X-0.7167 Y-54.6708 F500.00
G01 X-0.6973 Y-54.6950 F500.00
G01 X-0.6773 Y-54.7187 F500.00
G01 X-0.6308 Y-54.7723 F500.00
G01 X-0.6103 Y-54.7954 F500.00
G01 X-0.5892 Y-54.8179 F500.00
G01 X-0.5676 Y-54.8399 F500.00
G01 X-0.5455 Y-54.8614 F500.00
G01 X-0.5228 Y-54.8823 F500.00
G01 X-0.4996 Y-54.9027 F500.00
G01 X-0.4759 Y-54.9224 F500.00
G01 X-0.4518 Y-54.9416 F500.00
G01 X-0.4271 Y-54.9602 F500.00
G01 X-0.4020 Y-54.9781 F500.00
G01 X-0.3765 Y-54.9954 F500.00
G01 X-0.3506 Y-55.0121 F500.00
G01 X-0.3242 Y-55.0281 F500.00
G01 X-0.2975 Y-55.0435 F500.00
G01 X-0.2704 Y-55.0582 F500.00
G01 X-0.2429 Y-55.0722 F500.00
G01 X-0.2151 Y-55.0855 F500.00
G01 X-0.1869 Y-55.0982 F500.00
G01 X-0.1585 Y-55.1101 F500.00
G01 X-0.1298 Y-55.1213 F500.00
G01 X-0.1008 Y-55.1318 F500.00
G01 X-0.0715 Y-55.1416 F500.00
G01 X-0.0420 Y-55.1507 F500.00
G01 X0.0261 Y-55.1707 F500.00
G01 X0.0545 Y-55.1787 F500.00
G01 X0.0832 Y-55.1860 F500.00
G01 X0.1120 Y-55.1926 F500.00
G01 X0.1410 Y-55.1986 F500.00
G01 X0.1700 Y-55.2038 F500.00
G01 X0.1992 Y-55.2084 F500.00
G01 X0.2286 Y-55.2122 F500.00
G01 X0.2579 Y-55.2154 F500.00
G01 X0.2874 Y-55.2178 F500.00
G01 X0.3169 Y-55.2196 F500.00
G01 X0.3464 Y-55.2206 F500.00
G01 X0.3760 Y-55.2210 F500.00
G01 X62.1314 Y-55.2210 F500.00
G01 X62.2023 Y-55.2384 F500.00
G01 X62.2321 Y-55.2447 F500.00
G01 X62.2621 Y-55.2503 F500.00
G01 X62.2922 Y-55.2551 F500.00
G01 X62.3601 Y-55.2652 F500.00
G01 X62.3904 Y-55.2693 F500.00
G01 X62.4207 Y-55.2726 F500.00
G01 X62.4510 Y-55.2753 F500.00
G01 X62.4814 Y-55.2771 F500.00
G01 X62.5501 Y-55.2805 F500.00
G01 X62.5805 Y-55.2816 F500.00
G01 X62.6110 Y-55.2820 F500.00
G01 X62.6415 Y-55.2816 F500.00
G01 X62.6719 Y-55.2805 F500.00
G01 X62.7406 Y-55.2771 F500.00
G01 X62.7710 Y-55.2753 F500.00
G01 X62.8013 Y-55.2726 F500.00
G01 X62.8316 Y-55.2693 F500.00
G01 X62.8619 Y-55.2652 F500.00
G01 X62.9298 Y-55.2551 F500.00
G01 X62.9599 Y-55.2503 F500.00
G01 X62.9899 Y-55.2447 F500.00
G01 X63.0197 Y-55.2384 F500.00
G01 X63.0906 Y-55.2210 F500.00
G01 X98.3030 Y-55.2210 F500.00
G01 X98.3326 Y-55.2206 F500.00
G01 X98.3621 Y-55.2196 F500.00
G01 X98.3916 Y-55.2178 F500.00
G01 X98.4211 Y-55.2154 F500.00
G01 X98.4504 Y-55.2122 F500.00
G01 X98.4798 Y-55.2084 F500.00
G01 X98.5090 Y-55.2038 F500.00
G01 X98.5380 Y-55.1986 F500.00
G01 X98.5670 Y-55.1926 F500.00
G01 X98.6496 Y-55.1743 F500.00
G01 X98.6796 Y-55.1665 F500.00
G01 X98.7095 Y-55.1580 F500.00
G01 X98.7391 Y-55.1488 F500.00
G01 X98.7685 Y-55.1389 F500.00
G01 X98.7977 Y-55.1282 F500.00
G01 X98.8265 Y-55.1168 F500.00
G01 X98.8551 Y-55.1046 F500.00
G01 X98.8834 Y-55.0918 F500.00
G01 X98.9113 Y-55.0782 F500.00
G01 X98.9389 Y-55.0640 F500.00
G01 X98.9661 Y-55.0491 F500.00
G01 X98.9929 Y-55.0335 F500.00
G01 X99.0193 Y-55.0172 F500.00
G01 X99.0454 Y-55.0003 F500.00
G01 X99.0709 Y-54.9827 F500.00
G01 X99.0961 Y-54.9645 F500.00
G01 X99.1208 Y-54.9457 F500.00
G01 X99.1450 Y-54.9263 F500.00
G01 X99.1687 Y-54.9063 F500.00
G01 X99.2223 Y-54.8598 F500.00
G01 X99.2454 Y-54.8393 F500.00
G01 X99.2679 Y-54.8182 F500.00
G01 X99.2899 Y-54.7966 F500.00
G01 X99.3114 Y-54.7745 F500.00
G01 X99.3323 Y-54.7518 F500.00
G01 X99.3527 Y-54.7286 F500.00
G01 X99.3724 Y-54.7049 F500.00
G01 X99.3916 Y-54.6808 F500.00
G01 X99.4102 Y-54.6561 F500.00
G01 X99.4281 Y-54.6310 F500.00
G01 X99.4454 Y-54.6055 F500.00
G01 X99.4621 Y-54.5796 F500.00
G01 X99.4781 Y-54.5532 F500.00
G01 X99.4935 Y-54.5265 F500.00
G01 X99.5082 Y-54.4994 F500.00
G01 X99.5222 Y-54.4719 F500.00
G01 X99.5355 Y-54.4441 F500.00
G01 X99.5482 Y-54.4159 F500.00
G01 X99.5601 Y-54.3875 F500.00
G01 X99.5713 Y-54.3588 F500.00
G01 X99.5818 Y-54.3298 F500.00
G01 X99.5916 Y-54.3005 F500.00
G01 X99.6007 Y-54.2710 F500.00
G01 X99.6207 Y-54.2029 F500.00
G01 X99.6287 Y-54.1745 F500.00
G01 X99.6360 Y-54.1458 F500.00
G01 X99.6426 Y-54.1170 F500.00
G01 X99.6486 Y-54.0880 F500.00
G01 X99.6538 Y-54.0590 F500.00
G01 X99.6584 Y-54.0298 F500.00
G01 X99.6622 Y-54.0004 F500.00
G01 X99.6654 Y-53.9711 F500.00
G01 X99.6678 Y-53.9416 F500.00
G01 X99.6696 Y-53.9121 F500.00
G01 X99.6706 Y-53.8826 F500.00
G01 X99.6710 Y-53.8530 F500.00
G01 X99.6710 Y-0.3760 F500.00
G01 X99.6706 Y-0.3464 F500.00
G01 X99.6696 Y-0.3169 F500.00
G01 X99.6678 Y-0.2874 F500.00
G01 X99.6654 Y-0.2579 F500.00
G01 X99.6622 Y-0.2286 F500.00
G01 X99.6584 Y-0.1992 F500.00
G01 X99.6538 Y-0.1700 F500.00
G01 X99.6486 Y-0.1410 F500.00
G01 X99.6426 Y-0.1120 F500.00
G01 X99.6243 Y-0.0294 F500.00
G01 X99.6165 Y0.0006 F500.00
G01 X99.6080 Y0.0305 F500.00
G01 X99.5988 Y0.0601 F500.00
G01 X99.5889 Y0.0895 F500.00
G01 X99.5782 Y0.1187 F500.00
G01 X99.5668 Y0.1475 F500.00
G01 X99.5546 Y0.1761 F500.00
G01 X99.5418 Y0.2044 F500.00
G01 X99.5282 Y0.2323 F500.00
G01 X99.5140 Y0.2599 F500.00
G01 X99.4991 Y0.2871 F500.00
G01 X99.4835 Y0.3139 F500.00
G01 X99.4672 Y0.3403 F500.00
G01 X99.4503 Y0.3664 F500.00
G01 X99.4327 Y0.3919 F500.00
G01 X99.4145 Y0.4171 F500.00
G01 X99.3957 Y0.4418 F500.00
G01 X99.3763 Y0.4660 F500.00
G01 X99.3563 Y0.4897 F500.00
G01 X99.3098 Y0.5433 F500.00
G01 X99.2893 Y0.5664 F500.00
G01 X99.2682 Y0.5889 F500.00
G01 X99.2466 Y0.6109 F500.00
G01 X99.2245 Y0.6324 F500.00
G01 X99.2018 Y0.6533 F500.00
G01 X99.1786 Y0.6737 F500.00
G01 X99.1549 Y0.6934 F500.00
G01 X99.1308 Y0.7126 F500.00
G01 X99.1061 Y0.7312 F500.00
G01 X99.0810 Y0.7491 F500.00
G01 X99.0555 Y0.7664 F500.00
G01 X99.0296 Y0.7831 F500.00
G01 X99.0032 Y0.7991 F500.00
G01 X98.9765 Y0.8145 F500.00
G01 X98.9494 Y0.8292 F500.00
G01 X98.9219 Y0.8432 F500.00
G01 X98.8941 Y0.8565 F500.00
G01 X98.8659 Y0.8692 F500.00
G01 X98.8375 Y0.8811 F500.00
G01 X98.8088 Y0.8923 F500.00
G01 X98.7798 Y0.9028 F500.00
G01 X98.7505 Y0.9126 F500.00
G01 X98.7210 Y0.9217 F500.00
G01 X98.6529 Y0.9417 F500.00
G01 X98.6245 Y0.9497 F500.00
G01 X98.5958 Y0.9570 F500.00
G01 X98.5670 Y0.9636 F500.00
G01 X98.5380 Y0.9696 F500.00
G01 X98.5090 Y0.9748 F500.00
G01 X98.4798 Y0.9794 F500.00
G01 X98.4504 Y0.9832 F500.00
G01 X98.4211 Y0.9864 F500.00
G01 X98.3916 Y0.9888 F500.00
G01 X98.3621 Y0.9906 F500.00
G01 X98.3326 Y0.9916 F500.00
G01 X98.3030 Y0.9920 F500.00
G01 X0.3760 Y0.9920 F500.00
G01 X0.3464 Y0.9916 F500.00
G01 X0.3169 Y0.9906 F500.00
G01 X0.2874 Y0.9888 F500.00
G01 X0.2579 Y0.9864 F500.00
G01 X0.2286 Y0.9832 F500.00
G01 X0.1992 Y0.9794 F500.00
G01 X0.1700 Y0.9748 F500.00
G01 X0.1410 Y0.9696 F500.00
G01 X0.1120 Y0.9636 F500.00
G01 X0.0294 Y0.9453 F500.00
G01 X-0.0006 Y0.9375 F500.00
G01 X-0.0305 Y0.9290 F500.00
G01 X-0.0601 Y0.9198 F500.00
G01 X-0.0895 Y0.9099 F500.00
G01 X-0.1187 Y0.8992 F500.00
G01 X-0.1475 Y0.8878 F500.00
G01 X-0.1761 Y0.8756 F500.00
G01 X-0.2044 Y0.8628 F500.00
G01 X-0.2323 Y0.8492 F500.00
G01 X-0.2599 Y0.8350 F500.00
G01 X-0.2871 Y0.8201 F500.00
G01 X-0.3139 Y0.8045 F500.00
G01 X-0.3403 Y0.7882 F500.00
G01 X-0.3664 Y0.7713 F500.00
G01 X-0.3919 Y0.7537 F500.00
G01 X-0.4171 Y0.7355 F500.00
G01 X-0.4418 Y0.7167 F500.00
G01 X-0.4660 Y0.6973 F500.00
G01 X-0.4897 Y0.6773 F500.00
G01 X-0.5433 Y0.6308 F500.00
G01 X-0.5664 Y0.6103 F500.00
G01 X-0.5889 Y0.5892 F500.00
G01 X-0.6109 Y0.5676 F500.00
G01 X-0.6324 Y0.5455 F500.00
G01 X-0.6533 Y0.5228 F500.00
G01 X-0.6737 Y0.4996 F500.00
G01 X-0.6934 Y0.4759 F500.00
G01 X-0.7126 Y0.4518 F500.00
G01 X-0.7312 Y0.4271 F500.00
G01 X-0.7491 Y0.4020 F500.00
G01 X-0.7664 Y0.3765 F500.00
G01 X-0.7831 Y0.3506 F500.00
G01 X-0.7991 Y0.3242 F500.00
G01 X-0.8145 Y0.2975 F500.00
G01 X-0.8292 Y0.2704 F500.00
G01 X-0.8432 Y0.2429 F500.00
G01 X-0.8565 Y0.2151 F500.00
G01 X-0.8692 Y0.1869 F500.00
G01 X-0.8811 Y0.1585 F500.00
G01 X-0.8923 Y0.1298 F500.00
G01 X-0.9028 Y0.1008 F500.00
G01 X-0.9126 Y0.0715 F500.00
G01 X-0.9217 Y0.0420 F500.00
G01 X-0.9497 Y-0.0545 F500.00
G01 X-0.9570 Y-0.0832 F500.00
G01 X-0.9636 Y-0.1120 F500.00
G01 X-0.9696 Y-0.1410 F500.00
G01 X-0.9748 Y-0.1700 F500.00
G00 Z2.0000
G00 X-1.1168 Y-0.1462
G01 F300.00
G01 Z-0.0693
G01 F500.00
G01 X-1.1219 Y-0.1788 F500.00
G01 X-1.1262 Y-0.2115 F500.00
G01 X-1.1297 Y-0.2443 F500.00
G01 X-1.1325 Y-0.2771 F500.00
G01 X-1.1344 Y-0.3101 F500.00
G01 X-1.1356 Y-0.3430 F500.00
G01 X-1.1360 Y-0.3760 F500.00
G01 X-1.1360 Y-53.8530 F500.00
G01 X-1.1356 Y-53.8860 F500.00
G01 X-1.1344 Y-53.9189 F500.00
G01 X-1.1325 Y-53.9519 F500.00
G01 X-1.1297 Y-53.9847 F500.00
G01 X-1.1262 Y-54.0175 F500.00
G01 X-1.1219 Y-54.0502 F500.00
G01 X-1.1168 Y-54.0828 F500.00
G01 X-1.1110 Y-54.1153 F500.00
G01 X-1.0929 Y-54.1999 F500.00
G01 X-1.0852 Y-54.2337 F500.00
G01 X-1.0765 Y-54.2672 F500.00
G01 X-1.0671 Y-54.3006 F500.00
G01 X-1.0568 Y-54.3336 F500.00
G01 X-1.0457 Y-54.3664 F500.00
G01 X-1.0337 Y-54.3990 F500.00
G01 X-1.0210 Y-54.4312 F500.00
G01 X-1.0075 Y-54.4630 F500.00
G01 X-0.9931 Y-54.4946 F500.00
G01 X-0.9780 Y-54.5257 F500.00
G01 X-0.9621 Y-54.5565 F500.00
G01 X-0.9455 Y-54.5869 F500.00
G01 X-0.9281 Y-54.6168 F500.00
G01 X-0.9099 Y-54.6463 F500.00
G01 X-0.8910 Y-54.6754 F500.00
G01 X-0.8714 Y-54.7039 F500.00
G01 X-0.8511 Y-54.7320 F500.00
G01 X-0.8301 Y-54.7595 F500.00
G01 X-0.8084 Y-54.7865 F500.00
G01 X-0.7861 Y-54.8130 F500.00
G01 X-0.7396 Y-54.8666 F500.00
G01 X-0.7167 Y-54.8924 F500.00
G01 X-0.6932 Y-54.9175 F500.00
G01 X-0.6691 Y-54.9421 F500.00
G01 X-0.6444 Y-54.9660 F500.00
G01 X-0.6191 Y-54.9894 F500.00
G01 X-0.5932 Y-55.0121 F500.00
G01 X-0.5668 Y-55.0341 F500.00
G01 X-0.5398 Y-55.0555 F500.00
G01 X-0.5124 Y-55.0762 F500.00
G01 X-0.4844 Y-55.0963 F500.00
G01 X-0.4559 Y-55.1156 F500.00
G01 X-0.4269 Y-55.1342 F500.00
G01 X-0.3975 Y-55.1521 F500.00
G01 X-0.3677 Y-55.1692 F500.00
G01 X-0.3374 Y-55.1856 F500.00
G01 X-0.3067 Y-55.2013 F500.00
G01 X-0.2757 Y-55.2161 F500.00
G01 X-0.2443 Y-55.2303 F500.00
G01 X-0.2126 Y-55.2436 F500.00
G01 X-0.1805 Y-55.2561 F500.00
G01 X-0.1481 Y-55.2678 F500.00
G01 X-0.1155 Y-55.2787 F500.00
G01 X-0.0826 Y-55.2889 F500.00
G01 X-0.0145 Y-55.3089 F500.00
G01 X0.0173 Y-55.3178 F500.00
G01 X0.0492 Y-55.3259 F500.00
G01 X0.0814 Y-55.3333 F500.00
G01 X0.1137 Y-55.3400 F500.00
G01 X0.1462 Y-55.3458 F500.00
G01 X0.1788 Y-55.3509 F500.00
G01 X0.2115 Y-55.3552 F500.00
G01 X0.2443 Y-55.3587 F500.00
G01 X0.2771 Y-55.3615 F500.00
G01 X0.3101 Y-55.3634 F500.00
G01 X0.3430 Y-55.3646 F500.00
G01 X0.3760 Y-55.3650 F500.00
G01 X62.1137 Y-55.3650 F500.00
G01 X62.1708 Y-55.3789 F500.00
G01 X62.2040 Y-55.3859 F500.00
G01 X62.2375 Y-55.3921 F500.00
G01 X62.2711 Y-55.3975 F500.00
G01 X62.3390 Y-55.4076 F500.00
G01 X62.3727 Y-55.4122 F500.00
G01 X62.4065 Y-55.4160 F500.00
G01 X62.4404 Y-55.4189 F500.00
G01 X62.4744 Y-55.4210 F500.00
G01 X62.5430 Y-55.4243 F500.00
G01 X62.5770 Y-55.4256 F500.00
G01 X62.6110 Y-55.4260 F500.00
G01 X62.6450 Y-55.4256 F500.00
G01 X62.6790 Y-55.4243 F500.00
G01 X62.7476 Y-55.4210 F500.00
G01 X62.7816 Y-55.4189 F500.00
G01 X62.8155 Y-55.4160 F500.00
G01 X62.8493 Y-55.4122 F500.00
G01 X62.8830 Y-55.4076 F500.00
G01 X62.9509 Y-55.3975 F500.00
G01 X62.9845 Y-55.3921 F500.00
G01 X63.0180 Y-55.3859 F500.00
G01 X63.0512 Y-55.3789 F500.00
G01 X63.1083 Y-55.3650 F500.00
G01 X98.3030 Y-55.3650 F500.00
G01 X98.3360 Y-55.3646 F500.00
G01 X98.3689 Y-55.3634 F500.00
G01 X98.4019 Y-55.3615 F500.00
G01 X98.4347 Y-55.3587 F500.00
G01 X98.4675 Y-55.3552 F500.00
G01 X98.5002 Y-55.3509 F500.00
G01 X98.5328 Y-55.3458 F500.00
G01 X98.5653 Y-55.3400 F500.00
G01 X98.5976 Y-55.3333 F500.00
G01 X98.6499 Y-55.3219 F500.00
G01 X98.6837 Y-55.3142 F500.00
G01 X98.7172 Y-55.3055 F500.00
G01 X98.7506 Y-55.2961 F500.00
G01 X98.7836 Y-55.2858 F500.00
G01 X98.8164 Y-55.2747 F500.00
G01 X98.8490 Y-55.2627 F500.00
G01 X98.8812 Y-55.2500 F500.00
G01 X98.9130 Y-55.2365 F500.00
G01 X98.9446 Y-55.2221 F500.00
G01 X98.9757 Y-55.2070 F500.00
G01 X99.0065 Y-55.1911 F500.00
G01 X99.0369 Y-55.1745 F500.00
G01 X99.0668 Y-55.1571 F500.00
G01 X99.0963 Y-55.1389 F500.00
G01 X99.1254 Y-55.1200 F500.00
G01 X99.1539 Y-55.1004 F500.00
G01 X99.1820 Y-55.0801 F500.00
G01 X99.2095 Y-55.0591 F500.00
G01 X99.2365 Y-55.0374 F500.00
G01 X99.2630 Y-55.0151 F500.00
G01 X99.3166 Y-54.9686 F500.00
G01 X99.3424 Y-54.9457 F500.00
G01 X99.3675 Y-54.9222 F500.00
G01 X99.3921 Y-54.8981 F500.00
G01 X99.4160 Y-54.8734 F500.00
G01 X99.4394 Y-54.8481 F500.00
G01 X99.4621 Y-54.8222 F500.00
G01 X99.4841 Y-54.7958 F500.00
G01 X99.5055 Y-54.7688 F500.00
G01 X99.5262 Y-54.7414 F500.00
G01 X99.5463 Y-54.7134 F500.00
G01 X99.5656 Y-54.6849 F500.00
G01 X99.5842 Y-54.6559 F500.00
G01 X99.6021 Y-54.6265 F500.00
G01 X99.6192 Y-54.5967 F500.00
G01 X99.6356 Y-54.5664 F500.00
G01 X99.6513 Y-54.5357 F500.00
G01 X99.6661 Y-54.5047 F500.00
G01 X99.6803 Y-54.4733 F500.00
G01 X99.6936 Y-54.4416 F500.00
G01 X99.7061 Y-54.4095 F500.00
G01 X99.7178 Y-54.3771 F500.00
G01 X99.7287 Y-54.3445 F500.00
G01 X99.7389 Y-54.3116 F500.00
G01 X99.7589 Y-54.2435 F500.00
G01 X99.7678 Y-54.2117 F500.00
G01 X99.7759 Y-54.1798 F500.00
G01 X99.7833 Y-54.1476 F500.00
G01 X99.7900 Y-54.1153 F500.00
G01 X99.7958 Y-54.0828 F500.00
G01 X99.8009 Y-54.0502 F500.00
G01 X99.8052 Y-54.0175 F500.00
G01 X99.8087 Y-53.9847 F500.00
G01 X99.8115 Y-53.9519 F500.00
G01 X99.8134 Y-53.9189 F500.00
G01 X99.8146 Y-53.8860 F500.00
G01 X99.8150 Y-53.8530 F500.00
G01 X99.8150 Y-0.3760 F500.00
G01 X99.8146 Y-0.3430 F500.00
G01 X99.8134 Y-0.3101 F500.00
G01 X99.8115 Y-0.2771 F500.00
G01 X99.8087 Y-0.2443 F500.00
G01 X99.8052 Y-0.2115 F500.00
G01 X99.8009 Y-0.1788 F500.00
G01 X99.7958 Y-0.1462 F500.00
G01 X99.7900 Y-0.1137 F500.00
G01 X99.7833 Y-0.0814 F500.00
G01 X99.7719 Y-0.0291 F500.00
G01 X99.7642 Y0.0047 F500.00
G01 X99.7555 Y0.0382 F500.00
G01 X99.7461 Y0.0716 F500.00
G01 X99.7358 Y0.1046 F500.00
G01 X99.7247 Y0.1374 F500.00
G01 X99.7127 Y0.1700 F500.00
G01 X99.7000 Y0.2022 F500.00
G01 X99.6865 Y0.2340 F500.00
G01 X99.6721 Y0.2656 F500.00
G01 X99.6570 Y0.2967 F500.00
G01 X99.6411 Y0.3275 F500.00
G01 X99.6245 Y0.3579 F500.00
G01 X99.6071 Y0.3878 F500.00
G01 X99.5889 Y0.4173 F500.00
G01 X99.5700 Y0.4464 F500.00
G01 X99.5504 Y0.4749 F500.00
G01 X99.5301 Y0.5030 F500.00
G01 X99.5091 Y0.5305 F500.00
G01 X99.4874 Y0.5575 F500.00
G01 X99.4651 Y0.5840 F500.00
G01 X99.4186 Y0.6376 F500.00
G01 X99.3957 Y0.6634 F500.00
G01 X99.3722 Y0.6885 F500.00
G01 X99.3481 Y0.7131 F500.00
G01 X99.3234 Y0.7370 F500.00
G01 X99.2981 Y0.7604 F500.00
G01 X99.2722 Y0.7831 F500.00
G01 X99.2458 Y0.8051 F500.00
G01 X99.2188 Y0.8265 F500.00
G01 X99.1914 Y0.8472 F500.00
G01 X99.1634 Y0.8673 F500.00
G01 X99.1349 Y0.8866 F500.00
G01 X99.1059 Y0.9052 F500.00
G01 X99.0765 Y0.9231 F500.00
G01 X99.0467 Y0.9402 F500.00
G01 X99.0164 Y0.9566 F500.00
G01 X98.9857 Y0.9723 F500.00
G01 X98.9547 Y0.9871 F500.00
G01 X98.9233 Y1.0013 F500.00
G01 X98.8916 Y1.0146 F500.00
G01 X98.8595 Y1.0271 F500.00
G01 X98.8271 Y1.0388 F500.00
G01 X98.7945 Y1.0497 F500.00
G01 X98.7616 Y1.0599 F500.00
G01 X98.6935 Y1.0799 F500.00
G01 X98.6617 Y1.0888 F500.00
G01 X98.6298 Y1.0969 F500.00
G01 X98.5976 Y1.1043 F500.00
G01 X98.5653 Y1.1110 F500.00
G01 X98.5328 Y1.1168 F500.00
G01 X98.5002 Y1.1219 F500.00
G01 X98.4675 Y1.1262 F500.00
G01 X98.4347 Y1.1297 F500.00
G01 X98.4019 Y1.1325 F500.00
G01 X98.3689 Y1.1344 F500.00
G01 X98.3360 Y1.1356 F500.00
G01 X98.3030 Y1.1360 F500.00
G01 X0.3760 Y1.1360 F500.00
G01 X0.3430 Y1.1356 F500.00
G01 X0.3101 Y1.1344 F500.00
G01 X0.2771 Y1.1325 F500.00
G01 X0.2443 Y1.1297 F500.00
G01 X0.2115 Y1.1262 F500.00
G01 X0.1788 Y1.1219 F500.00
G01 X0.1462 Y1.1168 F500.00
G01 X0.1137 Y1.1110 F500.00
G01 X0.0814 Y1.1043 F500.00
G01 X0.0291 Y1.0929 F500.00
G01 X-0.0047 Y1.0852 F500.00
G01 X-0.0382 Y1.0765 F500.00
G01 X-0.0716 Y1.0671 F500.00
G01 X-0.1046 Y1.0568 F500.00
G01 X-0.1374 Y1.0457 F500.00
G01 X-0.1700 Y1.0337 F500.00
G01 X-0.2022 Y1.0210 F500.00
G01 X-0.2340 Y1.0075 F500.00
G01 X-0.2656 Y0.9931 F500.00
G01 X-0.2967 Y0.9780 F500.00
G01 X-0.3275 Y0.9621 F500.00
G01 X-0.3579 Y0.9455 F500.00
G01 X-0.3878 Y0.9281 F500.00
G01 X-0.4173 Y0.9099 F500.00
G01 X-0.4464 Y0.8910 F500.00
G01 X-0.4749 Y0.8714 F500.00
G01 X-0.5030 Y0.8511 F500.00
G01 X-0.5305 Y0.8301 F500.00
G01 X-0.5575 Y0.8084 F500.00
G01 X-0.5840 Y0.7861 F500.00
G01 X-0.6376 Y0.7396 F500.00
G01 X-0.6634 Y0.7167 F500.00
G01 X-0.6885 Y0.6932 F500.00
G01 X-0.7131 Y0.6691 F500.00
G01 X-0.7370 Y0.6444 F500.00
G01 X-0.7604 Y0.6191 F500.00
G01 X-0.7831 Y0.5932 F500.00
G01 X-0.8051 Y0.5668 F500.00
G01 X-0.8265 Y0.5398 F500.00
G01 X-0.8472 Y0.5124 F500.00
G01 X-0.8673 Y0.4844 F500.00
G01 X-0.8866 Y0.4559 F500.00
G01 X-0.9052 Y0.4269 F500.00
G01 X-0.9231 Y0.3975 F500.00
G01 X-0.9402 Y0.3677 F500.00
G01 X-0.9566 Y0.3374 F500.00
G01 X-0.9723 Y0.3067 F500.00
G01 X-0.9871 Y0.2757 F500.00
G01 X-1.0013 Y0.2443 F500.00
G01 X-1.0146 Y0.2126 F500.00
G01 X-1.0271 Y0.1805 F500.00
G01 X-1.0388 Y0.1481 F500.00
G01 X-1.0497 Y0.1155 F500.00
G01 X-1.0599 Y0.0826 F500.00
G01 X-1.0799 Y0.0145 F500.00
G01 X-1.0888 Y-0.0173 F500.00
G01 X-1.0969 Y-0.0492 F500.00
G01 X-1.1043 Y-0.0814 F500.00
G01 X-1.1110 Y-0.1137 F500.00
G01 X-1.1168 Y-0.1462 F500.00
G00 Z2.0000
G00 X0.0192 Y-0.3372
G01 F300.00
G01 Z-0.0693
G01 F500.00
G01 X0.0171 Y-0.3538 F500.00
G01 X0.0163 Y-0.3649 F500.00
G01 X0.0160 Y-0.3760 F500.00
G01 X0.0160 Y-53.8530 F500.00
G01 X0.0163 Y-53.8641 F500.00
G01 X0.0171 Y-53.8752 F500.00
G01 X0.0192 Y-53.8918 F500.00
G01 X0.0340 Y-53.9608 F500.00
G01 X0.0371 Y-53.9721 F500.00
G01 X0.0427 Y-53.9887 F500.00
G01 X0.0496 Y-54.0048 F500.00
G01 X0.0576 Y-54.0204 F500.00
G01 X0.0668 Y-54.0353 F500.00
G01 X0.0736 Y-54.0449 F500.00
G01 X0.0808 Y-54.0541 F500.00
G01 X0.1310 Y-54.1122 F500.00
G01 X0.1389 Y-54.1208 F500.00
G01 X0.1514 Y-54.1330 F500.00
G01 X0.1648 Y-54.1441 F500.00
G01 X0.1789 Y-54.1543 F500.00
G01 X0.1938 Y-54.1633 F500.00
G01 X0.2041 Y-54.1687 F500.00
G01 X0.2147 Y-54.1736 F500.00
G01 X0.2309 Y-54.1800 F500.00
G01 X0.2420 Y-54.1835 F500.00
G01 X0.3154 Y-54.2050 F500.00
G01 X0.3263 Y-54.2077 F500.00
G01 X0.3427 Y-54.2106 F500.00
G01 X0.3593 Y-54.2124 F500.00
G01 X0.3760 Y-54.2130 F500.00
G01 X62.2810 Y-54.2130 F500.00
G01 X62.3290 Y-54.2302 F500.00
G01 X62.3454 Y-54.2354 F500.00
G01 X62.4176 Y-54.2535 F500.00
G01 X62.4344 Y-54.2571 F500.00
G01 X62.5081 Y-54.2681 F500.00
G01 X62.5195 Y-54.2695 F500.00
G01 X62.5995 Y-54.2737 F500.00
G01 X62.6110 Y-54.2740 F500.00
G01 X62.6911 Y-54.2703 F500.00
G01 X62.7025 Y-54.2695 F500.00
G01 X62.7139 Y-54.2681 F500.00
G01 X62.7876 Y-54.2571 F500.00
G01 X62.8044 Y-54.2535 F500.00
G01 X62.8766 Y-54.2354 F500.00
G01 X62.8930 Y-54.2302 F500.00
G01 X62.9410 Y-54.2130 F500.00
G01 X98.3030 Y-54.2130 F500.00
G01 X98.3141 Y-54.2127 F500.00
G01 X98.3252 Y-54.2119 F500.00
G01 X98.3418 Y-54.2098 F500.00
G01 X98.4108 Y-54.1950 F500.00
G01 X98.4277 Y-54.1902 F500.00
G01 X98.4441 Y-54.1841 F500.00
G01 X98.4548 Y-54.1794 F500.00
G01 X98.4704 Y-54.1714 F500.00
G01 X98.4853 Y-54.1622 F500.00
G01 X98.4949 Y-54.1554 F500.00
G01 X98.5041 Y-54.1482 F500.00
G01 X98.5622 Y-54.0980 F500.00
G01 X98.5708 Y-54.0901 F500.00
G01 X98.5830 Y-54.0776 F500.00
G01 X98.5941 Y-54.0642 F500.00
G01 X98.6043 Y-54.0501 F500.00
G01 X98.6133 Y-54.0352 F500.00
G01 X98.6212 Y-54.0196 F500.00
G01 X98.6259 Y-54.0090 F500.00
G01 X98.6300 Y-53.9981 F500.00
G01 X98.6335 Y-53.9870 F500.00
G01 X98.6550 Y-53.9136 F500.00
G01 X98.6588 Y-53.8973 F500.00
G01 X98.6606 Y-53.8863 F500.00
G01 X98.6624 Y-53.8697 F500.00
G01 X98.6630 Y-53.8530 F500.00
G01 X98.6630 Y-0.3760 F500.00
G01 X98.6627 Y-0.3649 F500.00
G01 X98.6619 Y-0.3538 F500.00
G01 X98.6598 Y-0.3372 F500.00
G01 X98.6450 Y-0.2682 F500.00
G01 X98.6402 Y-0.2513 F500.00
G01 X98.6341 Y-0.2349 F500.00
G01 X98.6269 Y-0.2189 F500.00
G01 X98.6214 Y-0.2086 F500.00
G01 X98.6122 Y-0.1937 F500.00
G01 X98.6054 Y-0.1841 F500.00
G01 X98.5982 Y-0.1749 F500.00
G01 X98.5480 Y-0.1168 F500.00
G01 X98.5401 Y-0.1082 F500.00
G01 X98.5276 Y-0.0960 F500.00
G01 X98.5142 Y-0.0849 F500.00
G01 X98.5001 Y-0.0747 F500.00
G01 X98.4852 Y-0.0657 F500.00
G01 X98.4696 Y-0.0578 F500.00
G01 X98.4590 Y-0.0531 F500.00
G01 X98.4481 Y-0.0490 F500.00
G01 X98.4370 Y-0.0455 F500.00
G01 X98.3636 Y-0.0240 F500.00
G01 X98.3527 Y-0.0213 F500.00
G01 X98.3363 Y-0.0184 F500.00
G01 X98.3197 Y-0.0166 F500.00
G01 X98.3030 Y-0.0160 F500.00
G01 X0.3760 Y-0.0160 F500.00
G01 X0.3649 Y-0.0163 F500.00
G01 X0.3538 Y-0.0171 F500.00
G01 X0.3372 Y-0.0192 F500.00
G01 X0.3263 Y-0.0213 F500.00
G01 X0.2626 Y-0.0355 F500.00
G01 X0.2458 Y-0.0407 F500.00
G01 X0.2295 Y-0.0472 F500.00
G01 X0.2189 Y-0.0521 F500.00
G01 X0.2086 Y-0.0576 F500.00
G01 X0.1937 Y-0.0668 F500.00
G01 X0.1841 Y-0.0736 F500.00
G01 X0.1704 Y-0.0845 F500.00
G01 X0.1124 Y-0.1349 F500.00
G01 X0.1040 Y-0.1429 F500.00
G01 X0.0960 Y-0.1514 F500.00
G01 X0.0885 Y-0.1602 F500.00
G01 X0.0814 Y-0.1694 F500.00
G01 X0.0747 Y-0.1789 F500.00
G01 X0.0686 Y-0.1888 F500.00
G01 X0.0629 Y-0.1989 F500.00
G01 X0.0578 Y-0.2094 F500.00
G01 X0.0510 Y-0.2254 F500.00
G01 X0.0455 Y-0.2420 F500.00
G01 X0.0240 Y-0.3154 F500.00
G01 X0.0213 Y-0.3263 F500.00
G01 X0.0192 Y-0.3372 F500.00
G00 Z2.0000
G00 X0.1612 Y-0.3611
G01 F300.00
G01 Z-0.0693
G01 F500.00
G01 X0.1602 Y-0.3696 F500.00
G01 X0.1600 Y-0.3760 F500.00
G01 X0.1600 Y-53.8530 F500.00
G01 X0.1604 Y-53.8616 F500.00
G01 X0.1616 Y-53.8700 F500.00
G01 X0.1739 Y-53.9267 F500.00
G01 X0.1773 Y-53.9374 F500.00
G01 X0.1799 Y-53.9436 F500.00
G01 X0.1830 Y-53.9496 F500.00
G01 X0.1878 Y-53.9572 F500.00
G01 X0.1919 Y-53.9626 F500.00
G01 X0.2413 Y-54.0196 F500.00
G01 X0.2511 Y-54.0288 F500.00
G01 X0.2564 Y-54.0328 F500.00
G01 X0.2640 Y-54.0376 F500.00
G01 X0.2720 Y-54.0415 F500.00
G01 X0.2804 Y-54.0447 F500.00
G01 X0.3527 Y-54.0659 F500.00
G01 X0.3632 Y-54.0681 F500.00
G01 X0.3760 Y-54.0690 F500.00
G01 X62.3067 Y-54.0690 F500.00
G01 X62.3817 Y-54.0960 F500.00
G01 X62.4569 Y-54.1148 F500.00
G01 X62.5336 Y-54.1262 F500.00
G01 X62.6110 Y-54.1300 F500.00
G01 X62.6884 Y-54.1262 F500.00
G01 X62.7651 Y-54.1148 F500.00
G01 X62.8403 Y-54.0960 F500.00
G01 X62.9153 Y-54.0690 F500.00
G01 X98.3030 Y-54.0690 F500.00
G01 X98.3116 Y-54.0686 F500.00
G01 X98.3200 Y-54.0674 F500.00
G01 X98.3767 Y-54.0551 F500.00
G01 X98.3832 Y-54.0532 F500.00
G01 X98.3895 Y-54.0509 F500.00
G01 X98.3996 Y-54.0460 F500.00
G01 X98.4053 Y-54.0424 F500.00
G01 X98.4126 Y-54.0371 F500.00
G01 X98.4696 Y-53.9877 F500.00
G01 X98.4788 Y-53.9779 F500.00
G01 X98.4828 Y-53.9726 F500.00
G01 X98.4876 Y-53.9650 F500.00
G01 X98.4915 Y-53.9570 F500.00
G01 X98.4947 Y-53.9486 F500.00
G01 X98.5159 Y-53.8763 F500.00
G01 X98.5184 Y-53.8637 F500.00
G01 X98.5190 Y-53.8530 F500.00
G01 X98.5190 Y-0.3760 F500.00
G01 X98.5186 Y-0.3674 F500.00
G01 X98.5174 Y-0.3590 F500.00
G01 X98.5051 Y-0.3023 F500.00
G01 X98.5017 Y-0.2916 F500.00
G01 X98.4991 Y-0.2854 F500.00
G01 X98.4960 Y-0.2794 F500.00
G01 X98.4912 Y-0.2718 F500.00
G01 X98.4871 Y-0.2664 F500.00
G01 X98.4377 Y-0.2094 F500.00
G01 X98.4279 Y-0.2002 F500.00
G01 X98.4226 Y-0.1962 F500.00
G01 X98.4150 Y-0.1914 F500.00
G01 X98.4070 Y-0.1875 F500.00
G01 X98.3986 Y-0.1843 F500.00
G01 X98.3263 Y-0.1631 F500.00
G01 X98.3158 Y-0.1609 F500.00
G01 X98.3030 Y-0.1600 F500.00
G01 X0.3760 Y-0.1600 F500.00
G01 X0.3674 Y-0.1604 F500.00
G01 X0.3590 Y-0.1616 F500.00
G01 X0.3045 Y-0.1734 F500.00
G01 X0.2937 Y-0.1765 F500.00
G01 X0.2834 Y-0.1809 F500.00
G01 X0.2755 Y-0.1853 F500.00
G01 X0.2664 Y-0.1919 F500.00
G01 X0.2078 Y-0.2429 F500.00
G01 X0.2016 Y-0.2494 F500.00
G01 X0.1962 Y-0.2564 F500.00
G01 X0.1904 Y-0.2660 F500.00
G01 X0.1866 Y-0.2741 F500.00
G01 X0.1836 Y-0.2825 F500.00
G01 X0.1636 Y-0.3506 F500.00
G01 X0.1612 Y-0.3611 F500.00
G00 Z2.0000
G00 X12.4179 Y-12.6144
G01 F300.00
G01 Z-0.0693
G01 F500.00
G01 X12.4298 Y-12.6294 F500.00
G01 X12.6165 Y-12.8038 F500.00
G01 X12.8264 Y-12.9494 F500.00
G01 X13.0552 Y-13.0632 F500.00
G01 X13.2980 Y-13.1428 F500.00
G01 X13.5507 Y-13.1867 F500.00
G01 X13.6278 Y-13.1905 F500.00
G01 X13.7900 Y-13.1905 F500.00
G01 X13.9798 Y-13.1767 F500.00
G01 X14.2293 Y-13.1216 F500.00
G01 X14.4682 Y-13.0311 F500.00
G01 X14.6916 Y-12.9071 F500.00
G01 X14.8947 Y-12.7521 F500.00
G01 X15.0733 Y-12.5694 F500.00
G01 X15.2236 Y-12.3628 F500.00
G01 X15.3426 Y-12.1367 F500.00
G01 X15.3945 Y-11.9896 F500.00
G01 X15.4276 Y-11.8958 F500.00
G01 X15.4771 Y-11.6451 F500.00
G01 X15.4898 Y-11.3900 F500.00
G01 X15.4655 Y-11.1356 F500.00
G01 X15.4048 Y-10.8874 F500.00
G01 X15.3089 Y-10.6506 F500.00
G01 X15.1798 Y-10.4302 F500.00
G01 X15.0202 Y-10.2306 F500.00
G01 X14.8335 Y-10.0562 F500.00
G01 X14.6236 Y-9.9106 F500.00
G01 X14.3948 Y-9.7968 F500.00
G01 X14.1520 Y-9.7172 F500.00
G01 X13.8993 Y-9.6733 F500.00
G01 X13.8222 Y-9.6695 F500.00
G01 X13.6600 Y-9.6695 F500.00
G01 X13.4702 Y-9.6833 F500.00
G01 X13.2207 Y-9.7384 F500.00
G01 X12.9818 Y-9.8289 F500.00
G01 X12.7584 Y-9.9529 F500.00
G01 X12.5553 Y-10.1079 F500.00
G01 X12.3767 Y-10.2906 F500.00
G01 X12.2264 Y-10.4972 F500.00
G01 X12.1074 Y-10.7233 F500.00
G01 X12.0224 Y-10.9642 F500.00
G01 X11.9729 Y-11.2149 F500.00
G01 X11.9602 Y-11.4700 F500.00
G01 X11.9845 Y-11.7244 F500.00
G01 X12.0452 Y-11.9726 F500.00
G01 X12.1411 Y-12.2094 F500.00
G01 X12.2702 Y-12.4298 F500.00
G01 X12.4179 Y-12.6144 F500.00
G00 Z2.0000
G00 X12.5303 Y-12.5245
G01 F300.00
G01 Z-0.0693
G01 F500.00
G01 X12.5357 Y-12.5313 F500.00
G01 X12.7072 Y-12.6914 F500.00
G01 X12.8999 Y-12.8251 F500.00
G01 X13.1100 Y-12.9296 F500.00
G01 X13.3329 Y-13.0027 F500.00
G01 X13.5666 Y-13.0433 F500.00
G01 X13.6299 Y-13.0464 F500.00
G01 X13.7848 Y-13.0465 F500.00
G01 X13.9590 Y-13.0339 F500.00
G01 X14.1881 Y-12.9833 F500.00
G01 X14.4074 Y-12.9002 F500.00
G01 X14.6125 Y-12.7863 F500.00
G01 X14.7990 Y-12.6439 F500.00
G01 X14.9630 Y-12.4762 F500.00
G01 X15.1010 Y-12.2865 F500.00
G01 X15.2103 Y-12.0789 F500.00
G01 X15.2587 Y-11.9417 F500.00
G01 X15.2884 Y-11.8577 F500.00
G01 X15.3338 Y-11.6275 F500.00
G01 X15.3454 Y-11.3932 F500.00
G01 X15.3231 Y-11.1597 F500.00
G01 X15.2674 Y-10.9318 F500.00
G01 X15.1793 Y-10.7144 F500.00
G01 X15.0608 Y-10.5119 F500.00
G01 X14.9143 Y-10.3287 F500.00
G01 X14.7428 Y-10.1686 F500.00
G01 X14.5501 Y-10.0349 F500.00
G01 X14.3400 Y-9.9304 F500.00
G01 X14.1171 Y-9.8573 F500.00
G01 X13.8834 Y-9.8167 F500.00
G01 X13.8201 Y-9.8136 F500.00
G01 X13.6652 Y-9.8135 F500.00
G01 X13.4910 Y-9.8261 F500.00
G01 X13.2619 Y-9.8767 F500.00
G01 X13.0426 Y-9.9598 F500.00
G01 X12.8375 Y-10.0737 F500.00
G01 X12.6510 Y-10.2161 F500.00
G01 X12.4870 Y-10.3838 F500.00
G01 X12.3490 Y-10.5735 F500.00
G01 X12.2397 Y-10.7811 F500.00
G01 X12.1616 Y-11.0023 F500.00
G01 X12.1162 Y-11.2325 F500.00
G01 X12.1046 Y-11.4668 F500.00
G01 X12.1269 Y-11.7003 F500.00
G01 X12.1826 Y-11.9282 F500.00
G01 X12.2707 Y-12.1456 F500.00
G01 X12.3892 Y-12.3481 F500.00
G01 X12.5303 Y-12.5245 F500.00
G00 Z2.0000
G00 X12.6417 Y-12.4332
G01 F300.00
G01 Z-0.0693
G01 F500.00
G01 X12.7978 Y-12.5790 F500.00
G01 X12.9734 Y-12.7008 F500.00
G01 X13.1648 Y-12.7960 F500.00
G01 X13.3678 Y-12.8626 F500.00
G01 X13.5826 Y-12.8999 F500.00
G01 X13.6335 Y-12.9024 F500.00
G01 X13.7796 Y-12.9025 F500.00
G01 X13.9381 Y-12.8910 F500.00
G01 X14.1468 Y-12.8449 F500.00
G01 X14.3466 Y-12.7692 F500.00
G01 X14.5335 Y-12.6654 F500.00
G01 X14.7033 Y-12.5358 F500.00
G01 X14.8527 Y-12.3830 F500.00
G01 X14.9785 Y-12.2102 F500.00
G01 X15.0780 Y-12.0211 F500.00
G01 X15.1230 Y-11.8937 F500.00
G01 X15.1491 Y-11.8196 F500.00
G01 X15.1905 Y-11.6099 F500.00
G01 X15.2011 Y-11.3965 F500.00
G01 X15.1808 Y-11.1838 F500.00
G01 X15.1300 Y-10.9762 F500.00
G01 X15.0498 Y-10.7781 F500.00
G01 X14.9418 Y-10.5937 F500.00
G01 X14.8083 Y-10.4268 F500.00
G01 X14.6522 Y-10.2810 F500.00
G01 X14.4766 Y-10.1592 F500.00
G01 X14.2852 Y-10.0640 F500.00
G01 X14.0822 Y-9.9974 F500.00
G01 X13.8674 Y-9.9601 F500.00
G01 X13.8165 Y-9.9576 F500.00
G01 X13.6704 Y-9.9575 F500.00
G01 X13.5119 Y-9.9690 F500.00
G01 X13.3032 Y-10.0151 F500.00
G01 X13.1034 Y-10.0908 F500.00
G01 X12.9165 Y-10.1946 F500.00
G01 X12.7467 Y-10.3242 F500.00
G01 X12.5973 Y-10.4770 F500.00
G01 X12.4715 Y-10.6498 F500.00
G01 X12.3720 Y-10.8389 F500.00
G01 X12.3009 Y-11.0404 F500.00
G01 X12.2595 Y-11.2501 F500.00
G01 X12.2489 Y-11.4635 F500.00
G01 X12.2692 Y-11.6762 F500.00
G01 X12.3200 Y-11.8838 F500.00
G01 X12.4002 Y-12.0819 F500.00
G01 X12.5082 Y-12.2663 F500.00
G01 X12.6417 Y-12.4332 F500.00
G00 Z2.0000
G00 X12.7476 Y-12.3351
G01 F300.00
G01 Z-0.0693
G01 F500.00
G01 X12.8885 Y-12.4667 F500.00
G01 X13.0469 Y-12.5766 F500.00
G01 X13.2195 Y-12.6625 F500.00
G01 X13.4027 Y-12.7225 F500.00
G01 X13.5986 Y-12.7565 F500.00
G01 X13.6371 Y-12.7584 F500.00
G01 X13.7744 Y-12.7585 F500.00
G01 X13.9173 Y-12.7481 F500.00
G01 X14.1020 Y-12.7073 F500.00
G01 X14.2822 Y-12.6396 F500.00
G01 X14.4549 Y-12.5443 F500.00
G01 X14.6045 Y-12.4301 F500.00
G01 X14.7428 Y-12.2893 F500.00
G01 X14.8537 Y-12.1369 F500.00
G01 X14.9440 Y-11.9664 F500.00
G01 X15.0086 Y-11.7850 F500.00
G01 X15.0464 Y-11.5959 F500.00
G01 X15.0545 Y-11.4452 F500.00
G01 X15.0565 Y-11.4037 F500.00
G01 X15.0383 Y-11.2072 F500.00
G01 X14.9935 Y-11.0244 F500.00
G01 X14.9199 Y-10.8413 F500.00
G01 X14.8228 Y-10.6755 F500.00
G01 X14.7048 Y-10.5280 F500.00
G01 X14.5610 Y-10.3930 F500.00
G01 X14.4031 Y-10.2834 F500.00
G01 X14.2305 Y-10.1975 F500.00
G01 X14.0510 Y-10.1387 F500.00
G01 X13.8509 Y-10.1035 F500.00
G01 X13.8129 Y-10.1016 F500.00
G01 X13.6756 Y-10.1015 F500.00
G01 X13.5327 Y-10.1119 F500.00
G01 X13.3465 Y-10.1530 F500.00
G01 X13.3168 Y-10.1639 F500.00
G01 X13.1678 Y-10.2204 F500.00
G01 X12.9951 Y-10.3157 F500.00
G01 X12.8455 Y-10.4299 F500.00
G01 X12.7072 Y-10.5707 F500.00
G01 X12.5941 Y-10.7261 F500.00
G01 X12.5043 Y-10.8967 F500.00
G01 X12.4401 Y-11.0785 F500.00
G01 X12.4029 Y-11.2677 F500.00
G01 X12.3933 Y-11.4602 F500.00
G01 X12.4116 Y-11.6521 F500.00
G01 X12.4574 Y-11.8394 F500.00
G01 X12.5298 Y-12.0181 F500.00
G01 X12.6272 Y-12.1845 F500.00
G01 X12.7476 Y-12.3351 F500.00
G00 Z2.0000
G00 X12.8536 Y-12.2370
G01 F300.00
G01 Z-0.0693
G01 F500.00
G01 X12.9792 Y-12.3543 F500.00
G01 X13.1204 Y-12.4523 F500.00
G01 X13.2743 Y-12.5289 F500.00
G01 X13.4377 Y-12.5824 F500.00
G01 X13.6145 Y-12.6131 F500.00
G01 X13.6407 Y-12.6144 F500.00
G01 X13.7692 Y-12.6145 F500.00
G01 X13.8965 Y-12.6053 F500.00
G01 X14.0610 Y-12.5689 F500.00
G01 X14.2215 Y-12.5086 F500.00
G01 X14.3760 Y-12.4233 F500.00
G01 X14.5090 Y-12.3218 F500.00
G01 X14.6326 Y-12.1960 F500.00
G01 X14.7313 Y-12.0604 F500.00
G01 X14.8119 Y-11.9084 F500.00
G01 X14.8695 Y-11.7467 F500.00
G01 X14.9032 Y-11.5781 F500.00
G01 X14.9107 Y-11.4378 F500.00
G01 X14.9122 Y-11.4068 F500.00
G01 X14.8959 Y-11.2311 F500.00
G01 X14.8561 Y-11.0686 F500.00
G01 X14.7903 Y-10.9049 F500.00
G01 X14.7038 Y-10.7573 F500.00
G01 X14.5988 Y-10.6260 F500.00
G01 X14.4702 Y-10.5052 F500.00
G01 X14.3296 Y-10.4077 F500.00
G01 X14.1757 Y-10.3311 F500.00
G01 X14.0159 Y-10.2787 F500.00
G01 X13.8347 Y-10.2468 F500.00
G01 X13.8093 Y-10.2456 F500.00
G01 X13.6808 Y-10.2455 F500.00
G01 X13.5535 Y-10.2547 F500.00
G01 X13.3871 Y-10.2915 F500.00
G01 X13.2285 Y-10.3514 F500.00
G01 X13.0740 Y-10.4367 F500.00
G01 X12.9410 Y-10.5382 F500.00
G01 X12.8174 Y-10.6640 F500.00
G01 X12.7167 Y-10.8024 F500.00
G01 X12.6366 Y-10.9545 F500.00
G01 X12.5794 Y-11.1166 F500.00
G01 X12.5462 Y-11.2853 F500.00
G01 X12.5376 Y-11.4569 F500.00
G01 X12.5539 Y-11.6281 F500.00
G01 X12.5948 Y-11.7950 F500.00
G01 X12.6593 Y-11.9544 F500.00
G01 X12.7462 Y-12.1027 F500.00
G01 X12.8536 Y-12.2370 F500.00
G00 Z2.0000
G00 X12.9595 Y-12.1389
G01 F300.00
G01 Z-0.0693
G01 F500.00
G01 X13.0698 Y-12.2420 F500.00
G01 X13.1939 Y-12.3280 F500.00
G01 X13.3291 Y-12.3953 F500.00
G01 X13.4726 Y-12.4423 F500.00
G01 X13.6288 Y-12.4695 F500.00
G01 X13.6465 Y-12.4704 F500.00
G01 X13.7641 Y-12.4705 F500.00
G01 X13.8756 Y-12.4624 F500.00
G01 X14.0200 Y-12.4305 F500.00
G01 X14.1609 Y-12.3776 F500.00
G01 X14.2971 Y-12.3024 F500.00
G01 X14.4135 Y-12.2136 F500.00
G01 X14.5225 Y-12.1026 F500.00
G01 X14.6089 Y-11.9839 F500.00
G01 X14.6797 Y-11.8503 F500.00
G01 X14.7303 Y-11.7083 F500.00
G01 X14.7599 Y-11.5602 F500.00
G01 X14.7669 Y-11.4304 F500.00
G01 X14.7679 Y-11.4099 F500.00
G01 X14.7535 Y-11.2550 F500.00
G01 X14.7187 Y-11.1128 F500.00
G01 X14.6606 Y-10.9685 F500.00
G01 X14.5848 Y-10.8391 F500.00
G01 X14.4928 Y-10.7239 F500.00
G01 X14.3794 Y-10.6175 F500.00
G01 X14.2561 Y-10.5320 F500.00
G01 X14.1209 Y-10.4647 F500.00
G01 X13.9808 Y-10.4188 F500.00
G01 X13.8186 Y-10.3902 F500.00
G01 X13.8057 Y-10.3896 F500.00
G01 X13.6859 Y-10.3895 F500.00
G01 X13.5744 Y-10.3976 F500.00
G01 X13.4276 Y-10.4300 F500.00
G01 X13.2891 Y-10.4824 F500.00
G01 X13.1529 Y-10.5576 F500.00
G01 X13.0365 Y-10.6464 F500.00
G01 X12.9275 Y-10.7574 F500.00
G01 X12.8393 Y-10.8787 F500.00
G01 X12.7689 Y-11.0123 F500.00
G01 X12.7187 Y-11.1547 F500.00
G01 X12.6895 Y-11.3029 F500.00
G01 X12.6819 Y-11.4537 F500.00
G01 X12.6963 Y-11.6040 F500.00
G01 X12.7322 Y-11.7507 F500.00
G01 X12.7889 Y-11.8906 F500.00
G01 X12.8652 Y-12.0209 F500.00
G01 X12.9595 Y-12.1389 F500.00
G00 Z2.0000
G00 X13.1605 Y-12.1296
G01 F300.00
G01 Z-0.0693
G01 F500.00
G01 X13.2655 Y-12.2025 F500.00
G01 X13.3277 Y-12.2337 F500.00
G01 X13.3839 Y-12.2617 F500.00
G01 X13.5043 Y-12.3012 F500.00
G01 X13.6463 Y-12.3262 F500.00
G01 X13.6505 Y-12.3264 F500.00
G01 X13.7589 Y-12.3265 F500.00
G01 X13.8548 Y-12.3195 F500.00
G01 X13.9790 Y-12.2921 F500.00
G01 X14.1003 Y-12.2466 F500.00
G01 X14.2181 Y-12.1815 F500.00
G01 X14.3180 Y-12.1053 F500.00
G01 X14.4123 Y-12.0093 F500.00
G01 X14.4865 Y-11.9074 F500.00
G01 X14.5438 Y-11.7993 F500.00
G01 X14.5475 Y-11.7923 F500.00
G01 X14.5911 Y-11.6700 F500.00
G01 X14.6167 Y-11.5424 F500.00
G01 X14.6230 Y-11.4230 F500.00
G01 X14.6235 Y-11.4130 F500.00
G01 X14.6111 Y-11.2790 F500.00
G01 X14.5812 Y-11.1570 F500.00
G01 X14.5310 Y-11.0321 F500.00
G01 X14.4658 Y-10.9208 F500.00
G01 X14.3867 Y-10.8219 F500.00
G01 X14.2886 Y-10.7297 F500.00
G01 X14.1851 Y-10.6579 F500.00
G01 X14.0672 Y-10.5989 F500.00
G01 X13.9457 Y-10.5588 F500.00
G01 X13.8025 Y-10.5336 F500.00
G01 X13.6911 Y-10.5335 F500.00
G01 X13.5952 Y-10.5405 F500.00
G01 X13.4682 Y-10.5685 F500.00
G01 X13.3497 Y-10.6134 F500.00
G01 X13.2319 Y-10.6785 F500.00
G01 X13.1320 Y-10.7547 F500.00
G01 X13.0377 Y-10.8507 F500.00
G01 X12.9618 Y-10.9550 F500.00
G01 X12.9026 Y-11.0676 F500.00
G01 X12.8579 Y-11.1928 F500.00
G01 X12.8328 Y-11.3204 F500.00
G01 X12.8263 Y-11.4504 F500.00
G01 X12.8386 Y-11.5799 F500.00
G01 X12.8696 Y-11.7063 F500.00
G01 X12.9184 Y-11.8269 F500.00
G01 X12.9842 Y-11.9392 F500.00
G01 X13.0080 Y-11.9690 F500.00
G01 X13.0654 Y-12.0408 F500.00
G01 X13.1605 Y-12.1296 F500.00
G00 Z2.0000
G00 X13.2512 Y-12.0172
G01 F300.00
G01 Z-0.0693
G01 F500.00
G01 X13.3393 Y-12.0784 F500.00
G01 X13.3921 Y-12.1050 F500.00
G01 X13.4387 Y-12.1281 F500.00
G01 X13.5394 Y-12.1612 F500.00
G01 X13.6603 Y-12.1824 F500.00
G01 X13.7537 Y-12.1825 F500.00
G01 X13.8339 Y-12.1767 F500.00
G01 X13.9380 Y-12.1537 F500.00
G01 X14.0397 Y-12.1156 F500.00
G01 X14.1392 Y-12.0606 F500.00
G01 X14.2224 Y-11.9971 F500.00
G01 X14.3021 Y-11.9160 F500.00
G01 X14.3640 Y-11.8309 F500.00
G01 X14.4154 Y-11.7341 F500.00
G01 X14.4519 Y-11.6317 F500.00
G01 X14.4734 Y-11.5243 F500.00
G01 X14.4792 Y-11.4161 F500.00
G01 X14.4687 Y-11.3029 F500.00
G01 X14.4438 Y-11.2012 F500.00
G01 X14.4014 Y-11.0957 F500.00
G01 X14.3469 Y-11.0026 F500.00
G01 X14.2807 Y-10.9198 F500.00
G01 X14.1977 Y-10.8420 F500.00
G01 X14.1114 Y-10.7821 F500.00
G01 X14.0111 Y-10.7318 F500.00
G01 X13.9106 Y-10.6988 F500.00
G01 X13.7897 Y-10.6776 F500.00
G01 X13.6963 Y-10.6775 F500.00
G01 X13.6161 Y-10.6833 F500.00
G01 X13.5094 Y-10.7069 F500.00
G01 X13.4103 Y-10.7444 F500.00
G01 X13.3108 Y-10.7994 F500.00
G01 X13.2276 Y-10.8629 F500.00
G01 X13.1479 Y-10.9440 F500.00
G01 X13.0844 Y-11.0313 F500.00
G01 X13.0348 Y-11.1256 F500.00
G01 X12.9972 Y-11.2309 F500.00
G01 X12.9761 Y-11.3380 F500.00
G01 X12.9706 Y-11.4471 F500.00
G01 X12.9810 Y-11.5558 F500.00
G01 X13.0070 Y-11.6619 F500.00
G01 X13.0480 Y-11.7631 F500.00
G01 X13.1031 Y-11.8574 F500.00
G01 X13.1714 Y-11.9427 F500.00
G01 X13.2512 Y-12.0172 F500.00
G00 Z2.0000
G00 X13.3418 Y-11.9049
G01 F300.00
G01 Z-0.0693
G01 F500.00
G01 X13.4131 Y-11.9543 F500.00
G01 X13.4566 Y-11.9762 F500.00
G01 X13.4935 Y-11.9945 F500.00
G01 X13.5745 Y-12.0211 F500.00
G01 X13.6729 Y-12.0384 F500.00
G01 X13.7485 Y-12.0385 F500.00
G01 X13.8131 Y-12.0338 F500.00
G01 X13.8971 Y-12.0153 F500.00
G01 X13.9792 Y-11.9845 F500.00
G01 X14.0603 Y-11.9397 F500.00
G01 X14.1269 Y-11.8889 F500.00
G01 X14.1919 Y-11.8226 F500.00
G01 X14.2416 Y-11.7544 F500.00
G01 X14.2833 Y-11.6759 F500.00
G01 X14.3127 Y-11.5934 F500.00
G01 X14.3302 Y-11.5062 F500.00
G01 X14.3349 Y-11.4190 F500.00
G01 X14.3263 Y-11.3268 F500.00
G01 X14.3064 Y-11.2454 F500.00
G01 X14.2717 Y-11.1593 F500.00
G01 X14.2279 Y-11.0844 F500.00
G01 X14.1746 Y-11.0178 F500.00
G01 X14.1069 Y-10.9543 F500.00
G01 X14.0377 Y-10.9062 F500.00
G01 X13.9561 Y-10.8653 F500.00
G01 X13.8755 Y-10.8389 F500.00
G01 X13.7771 Y-10.8216 F500.00
G01 X13.7015 Y-10.8215 F500.00
G01 X13.6369 Y-10.8262 F500.00
G01 X13.5507 Y-10.8452 F500.00
G01 X13.4710 Y-10.8755 F500.00
G01 X13.3897 Y-10.9203 F500.00
G01 X13.3231 Y-10.9711 F500.00
G01 X13.2581 Y-11.0374 F500.00
G01 X13.2070 Y-11.1076 F500.00
G01 X13.1670 Y-11.1836 F500.00
G01 X13.1364 Y-11.2691 F500.00
G01 X13.1194 Y-11.3556 F500.00
G01 X13.1150 Y-11.4438 F500.00
G01 X13.1234 Y-11.5318 F500.00
G01 X13.1444 Y-11.6175 F500.00
G01 X13.1775 Y-11.6994 F500.00
G01 X13.2221 Y-11.7756 F500.00
G01 X13.2773 Y-11.8446 F500.00
G01 X13.3418 Y-11.9049 F500.00
G00 Z2.0000
G00 X13.4343 Y-11.7938
G01 F300.00
G01 Z-0.0693
G01 F500.00
G01 X13.4869 Y-11.8302 F500.00
G01 X13.5210 Y-11.8474 F500.00
G01 X13.5482 Y-11.8610 F500.00
G01 X13.6096 Y-11.8811 F500.00
G01 X13.6855 Y-11.8945 F500.00
G01 X13.7433 Y-11.8945 F500.00
G01 X13.7922 Y-11.8909 F500.00
G01 X13.8561 Y-11.8768 F500.00
G01 X13.9188 Y-11.8533 F500.00
G01 X13.9814 Y-11.8188 F500.00
G01 X14.0314 Y-11.7806 F500.00
G01 X14.0818 Y-11.7293 F500.00
G01 X14.1192 Y-11.6779 F500.00
G01 X14.1512 Y-11.6176 F500.00
G01 X14.1735 Y-11.5550 F500.00
G01 X14.1870 Y-11.4882 F500.00
G01 X14.1905 Y-11.4218 F500.00
G01 X14.1839 Y-11.3507 F500.00
G01 X14.1689 Y-11.2896 F500.00
G01 X14.1421 Y-11.2229 F500.00
G01 X14.1089 Y-11.1662 F500.00
G01 X14.0686 Y-11.1158 F500.00
G01 X14.0161 Y-11.0665 F500.00
G01 X13.9640 Y-11.0304 F500.00
G01 X13.9011 Y-10.9988 F500.00
G01 X13.8404 Y-10.9789 F500.00
G01 X13.7645 Y-10.9655 F500.00
G01 X13.7067 Y-10.9655 F500.00
G01 X13.6578 Y-10.9691 F500.00
G01 X13.5919 Y-10.9836 F500.00
G01 X13.5316 Y-11.0065 F500.00
G01 X13.4686 Y-11.0412 F500.00
G01 X13.4186 Y-11.0794 F500.00
G01 X13.3682 Y-11.1307 F500.00
G01 X13.3295 Y-11.1839 F500.00
G01 X13.2991 Y-11.2416 F500.00
G01 X13.2756 Y-11.3075 F500.00
G01 X13.2627 Y-11.3732 F500.00
G01 X13.2593 Y-11.4406 F500.00
G01 X13.2657 Y-11.5077 F500.00
G01 X13.2817 Y-11.5732 F500.00
G01 X13.3071 Y-11.6357 F500.00
G01 X13.3411 Y-11.6938 F500.00
G01 X13.3832 Y-11.7465 F500.00
G01 X13.4325 Y-11.7925 F500.00
G01 X13.4343 Y-11.7938 F500.00
G00 Z2.0000
G00 X15.1378 Y-24.6020
G01 F300.00
G01 Z-0.0693
G01 F500.00
G01 X15.1320 Y-24.5846 F500.00
G01 X15.1278 Y-24.5677 F500.00
G01 X15.1257 Y-24.5563 F500.00
G01 X15.1242 Y-24.5448 F500.00
G01 X15.1230 Y-24.5274 F500.00
G01 X15.1230 Y-24.5099 F500.00
G01 X15.1244 Y-24.4926 F500.00
G01 X15.1271 Y-24.4753 F500.00
G01 X15.1313 Y-24.4557 F500.00
G01 X15.1179 Y-24.4581 F500.00
G01 X15.0580 Y-24.4667 F500.00
G01 X14.9975 Y-24.4700 F500.00
G01 X14.9860 Y-24.4703 F500.00
G01 X14.9745 Y-24.4700 F500.00
G01 X14.9140 Y-24.4667 F500.00
G01 X14.9026 Y-24.4653 F500.00
G01 X14.8446 Y-24.4565 F500.00
G01 X14.8471 Y-24.4715 F500.00
G01 X14.8488 Y-24.4888 F500.00
G01 X14.8491 Y-24.5062 F500.00
G01 X14.8482 Y-24.5236 F500.00
G01 X14.8468 Y-24.5352 F500.00
G01 X14.8449 Y-24.5467 F500.00
G01 X14.8328 Y-24.6020 F500.00
G01 X15.1378 Y-24.6020 F500.00
G00 Z2.0000
G00 X14.8127 Y-26.2642
G01 F300.00
G01 Z-0.0693
G01 F500.00
G01 X14.8021 Y-26.2781 F500.00
G01 X14.7906 Y-26.2912 F500.00
G01 X14.7362 Y-26.3454 F500.00
G01 X14.7237 Y-26.3570 F500.00
G01 X14.7149 Y-26.3642 F500.00
G01 X14.7058 Y-26.3710 F500.00
G01 X14.6915 Y-26.3803 F500.00
G01 X14.6765 Y-26.3886 F500.00
G01 X14.6663 Y-26.3934 F500.00
G01 X14.6558 Y-26.3978 F500.00
G01 X14.6451 Y-26.4017 F500.00
G01 X14.6342 Y-26.4050 F500.00
G01 X14.5685 Y-26.4218 F500.00
G01 X14.5571 Y-26.4244 F500.00
G01 X14.5399 Y-26.4272 F500.00
G01 X14.5283 Y-26.4283 F500.00
G01 X14.5166 Y-26.4289 F500.00
G01 X14.4221 Y-26.4290 F500.00
G01 X14.3842 Y-26.4325 F500.00
G01 X14.2715 Y-26.4678 F500.00
G01 X14.1734 Y-26.5272 F500.00
G01 X14.0922 Y-26.6084 F500.00
G01 X14.0294 Y-26.7122 F500.00
G01 X14.0236 Y-26.7249 F500.00
G01 X14.0187 Y-26.7345 F500.00
G01 X14.0133 Y-26.7439 F500.00
G01 X14.0045 Y-26.7575 F500.00
G01 X13.9648 Y-26.8144 F500.00
G01 X13.9538 Y-26.8282 F500.00
G01 X13.9460 Y-26.8369 F500.00
G01 X13.9377 Y-26.8452 F500.00
G01 X13.9245 Y-26.8568 F500.00
G01 X13.9152 Y-26.8640 F500.00
G01 X13.9056 Y-26.8708 F500.00
G01 X13.8957 Y-26.8770 F500.00
G01 X13.8854 Y-26.8827 F500.00
G01 X13.8749 Y-26.8880 F500.00
G01 X13.7991 Y-26.9209 F500.00
G01 X13.7827 Y-26.9269 F500.00
G01 X13.7716 Y-26.9302 F500.00
G01 X13.7603 Y-26.9329 F500.00
G01 X13.7431 Y-26.9359 F500.00
G01 X13.7258 Y-26.9376 F500.00
G01 X13.7142 Y-26.9381 F500.00
G01 X13.7026 Y-26.9379 F500.00
G01 X13.6852 Y-26.9367 F500.00
G01 X13.6520 Y-26.9316 F500.00
G01 X13.6520 Y-27.4243 F500.00
G01 X13.7091 Y-27.4200 F500.00
G01 X13.7265 Y-27.4197 F500.00
G01 X13.7381 Y-27.4202 F500.00
G01 X13.7554 Y-27.4221 F500.00
G01 X13.7669 Y-27.4241 F500.00
G01 X13.7839 Y-27.4281 F500.00
G01 X13.7950 Y-27.4315 F500.00
G01 X13.8059 Y-27.4354 F500.00
G01 X13.8166 Y-27.4399 F500.00
G01 X13.8271 Y-27.4449 F500.00
G01 X13.8998 Y-27.4839 F500.00
G01 X13.9141 Y-27.4928 F500.00
G01 X13.9278 Y-27.5027 F500.00
G01 X13.9365 Y-27.5098 F500.00
G01 X13.9449 Y-27.5174 F500.00
G01 X13.9567 Y-27.5294 F500.00
G01 X13.9677 Y-27.5423 F500.00
G01 X13.9777 Y-27.5559 F500.00
G01 X14.0008 Y-27.5932 F500.00
G01 X14.0125 Y-27.6107 F500.00
G01 X14.0209 Y-27.6257 F500.00
G01 X14.0294 Y-27.6438 F500.00
G01 X14.0922 Y-27.7476 F500.00
G01 X14.1734 Y-27.8288 F500.00
G01 X14.1800 Y-27.8328 F500.00
G01 X14.1800 Y-27.7774 F500.00
G01 X14.1652 Y-27.7639 F500.00
G01 X14.1571 Y-27.7558 F500.00
G01 X14.1362 Y-27.7327 F500.00
G01 X14.1289 Y-27.7238 F500.00
G01 X14.1104 Y-27.6989 F500.00
G01 X14.1040 Y-27.6893 F500.00
G01 X14.0880 Y-27.6626 F500.00
G01 X14.0826 Y-27.6525 F500.00
G01 X14.0670 Y-27.6191 F500.00
G01 X14.0563 Y-27.5899 F500.00
G01 X14.0524 Y-27.5779 F500.00
G01 X14.0204 Y-27.5241 F500.00
G01 X14.0153 Y-27.5139 F500.00
G01 X13.9896 Y-27.4590 F500.00
G01 X13.9855 Y-27.4483 F500.00
G01 X13.9654 Y-27.3911 F500.00
G01 X13.9504 Y-27.3325 F500.00
G01 X13.9479 Y-27.3212 F500.00
G01 X13.9459 Y-27.3099 F500.00
G01 X13.9373 Y-27.2500 F500.00
G01 X13.9340 Y-27.1895 F500.00
G01 X13.9337 Y-27.1780 F500.00
G01 X13.9340 Y-27.1665 F500.00
G01 X13.9373 Y-27.1060 F500.00
G01 X13.9459 Y-27.0461 F500.00
G01 X13.9479 Y-27.0348 F500.00
G01 X13.9504 Y-27.0235 F500.00
G01 X13.9654 Y-26.9649 F500.00
G01 X13.9855 Y-26.9077 F500.00
G01 X13.9896 Y-26.8970 F500.00
G01 X13.9943 Y-26.8865 F500.00
G01 X14.0204 Y-26.8319 F500.00
G01 X14.0524 Y-26.7781 F500.00
G01 X14.0563 Y-26.7661 F500.00
G01 X14.0670 Y-26.7369 F500.00
G01 X14.0801 Y-26.7087 F500.00
G01 X14.0852 Y-26.6984 F500.00
G01 X14.0909 Y-26.6884 F500.00
G01 X14.1071 Y-26.6619 F500.00
G01 X14.1289 Y-26.6322 F500.00
G01 X14.1400 Y-26.6190 F500.00
G01 X14.1611 Y-26.5961 F500.00
G01 X14.1840 Y-26.5750 F500.00
G01 X14.1972 Y-26.5639 F500.00
G01 X14.2221 Y-26.5454 F500.00
G01 X14.2366 Y-26.5360 F500.00
G01 X14.2634 Y-26.5202 F500.00
G01 X14.2966 Y-26.5043 F500.00
G01 X14.3126 Y-26.4979 F500.00
G01 X14.3420 Y-26.4877 F500.00
G01 X14.3721 Y-26.4799 F500.00
G01 X14.3833 Y-26.4773 F500.00
G01 X14.3946 Y-26.4754 F500.00
G01 X14.4255 Y-26.4711 F500.00
G01 X14.4565 Y-26.4693 F500.00
G01 X14.4791 Y-26.4690 F500.00
G01 X14.5135 Y-26.4604 F500.00
G01 X14.5304 Y-26.4568 F500.00
G01 X14.5960 Y-26.4473 F500.00
G01 X14.6565 Y-26.4440 F500.00
G01 X14.6680 Y-26.4437 F500.00
G01 X14.9957 Y-26.4437 F500.00
G01 X14.9810 Y-26.4360 F500.00
G01 X14.9715 Y-26.4303 F500.00
G01 X14.9030 Y-26.3845 F500.00
G01 X14.8891 Y-26.3740 F500.00
G01 X14.8804 Y-26.3663 F500.00
G01 X14.8720 Y-26.3583 F500.00
G01 X14.8640 Y-26.3499 F500.00
G01 X14.8528 Y-26.3365 F500.00
G01 X14.8459 Y-26.3271 F500.00
G01 X14.8395 Y-26.3174 F500.00
G01 X14.8336 Y-26.3074 F500.00
G01 X14.8282 Y-26.2972 F500.00
G01 X14.8132 Y-26.2635 F500.00
G01 X14.8127 Y-26.2642 F500.00
G00 Z2.0000
G00 X13.7960 Y-27.0724
G01 F300.00
G01 Z-0.0693
G01 F500.00
G01 X13.7960 Y-27.0753 F500.00
G01 X13.7964 Y-27.0723 F500.00
G01 X13.7960 Y-27.0724 F500.00
G00 Z2.0000
G00 X13.7960 Y-27.2831
G01 F300.00
G01 Z-0.0693
G01 F500.00
G01 X13.7963 Y-27.2831 F500.00
G01 X13.7960 Y-27.2807 F500.00
G01 X13.7960 Y-27.2831 F500.00
G00 Z2.0000
G00 X13.3035 Y-26.4090
G01 F300.00
G01 Z-0.0693
G01 F500.00
G01 X13.3038 Y-26.4160 F500.00
G01 X13.3046 Y-26.4229 F500.00
G01 X13.3147 Y-26.4765 F500.00
G01 X13.3173 Y-26.4849 F500.00
G01 X13.3208 Y-26.4931 F500.00
G01 X13.3250 Y-26.5008 F500.00
G01 X13.3300 Y-26.5081 F500.00
G01 X13.3743 Y-26.5664 F500.00
G01 X13.3830 Y-26.5758 F500.00
G01 X13.3912 Y-26.5827 F500.00
G01 X13.4758 Y-26.6452 F500.00
G01 X13.5231 Y-26.7092 F500.00
G01 X13.5288 Y-26.7158 F500.00
G01 X13.5351 Y-26.7219 F500.00
G01 X13.5889 Y-26.7661 F500.00
G01 X13.6000 Y-26.7728 F500.00
G01 X13.6120 Y-26.7779 F500.00
G01 X13.6245 Y-26.7812 F500.00
G01 X13.7012 Y-26.7935 F500.00
G01 X13.7101 Y-26.7941 F500.00
G01 X13.7168 Y-26.7939 F500.00
G01 X13.7257 Y-26.7929 F500.00
G01 X13.7344 Y-26.7910 F500.00
G01 X13.7470 Y-26.7866 F500.00
G01 X13.8162 Y-26.7564 F500.00
G01 X13.8240 Y-26.7521 F500.00
G01 X13.8313 Y-26.7470 F500.00
G01 X13.8365 Y-26.7427 F500.00
G01 X13.8428 Y-26.7364 F500.00
G01 X13.8498 Y-26.7276 F500.00
G01 X13.8781 Y-26.6854 F500.00
G01 X13.8845 Y-26.6778 F500.00
G01 X13.8895 Y-26.6705 F500.00
G01 X13.8937 Y-26.6627 F500.00
G01 X13.9017 Y-26.6450 F500.00
G01 X13.9770 Y-26.5207 F500.00
G01 X13.9796 Y-26.5174 F500.00
G01 X14.0824 Y-26.4146 F500.00
G01 X14.0857 Y-26.4120 F500.00
G01 X14.2100 Y-26.3367 F500.00
G01 X14.2138 Y-26.3350 F500.00
G01 X14.3540 Y-26.2911 F500.00
G01 X14.3577 Y-26.2903 F500.00
G01 X14.4164 Y-26.2850 F500.00
G01 X14.5108 Y-26.2850 F500.00
G01 X14.5175 Y-26.2847 F500.00
G01 X14.5242 Y-26.2840 F500.00
G01 X14.5330 Y-26.2822 F500.00
G01 X14.5995 Y-26.2651 F500.00
G01 X14.6056 Y-26.2628 F500.00
G01 X14.6135 Y-26.2590 F500.00
G01 X14.6210 Y-26.2545 F500.00
G01 X14.6264 Y-26.2507 F500.00
G01 X14.6345 Y-26.2434 F500.00
G01 X14.6879 Y-26.1901 F500.00
G01 X14.6962 Y-26.1795 F500.00
G01 X14.7028 Y-26.1679 F500.00
G01 X14.7061 Y-26.1596 F500.00
G01 X14.7087 Y-26.1510 F500.00
G01 X14.7253 Y-26.0751 F500.00
G01 X14.7264 Y-26.0640 F500.00
G01 X14.7264 Y-26.0551 F500.00
G01 X14.7254 Y-26.0462 F500.00
G01 X14.7236 Y-26.0374 F500.00
G01 X14.7209 Y-26.0289 F500.00
G01 X14.6936 Y-25.9562 F500.00
G01 X14.6895 Y-25.9482 F500.00
G01 X14.6859 Y-25.9426 F500.00
G01 X14.6819 Y-25.9372 F500.00
G01 X14.6759 Y-25.9305 F500.00
G01 X14.6659 Y-25.9217 F500.00
G01 X14.6091 Y-25.8791 F500.00
G01 X14.6020 Y-25.8742 F500.00
G01 X14.5964 Y-25.8711 F500.00
G01 X14.5886 Y-25.8675 F500.00
G01 X14.5490 Y-25.8526 F500.00
G01 X14.4606 Y-25.7864 F500.00
G01 X14.4018 Y-25.7080 F500.00
G01 X14.3960 Y-25.7009 F500.00
G01 X14.3551 Y-25.6627 F500.00
G01 X14.3445 Y-25.6550 F500.00
G01 X14.3328 Y-25.6489 F500.00
G01 X14.3224 Y-25.6451 F500.00
G01 X14.2523 Y-25.6246 F500.00
G01 X14.2418 Y-25.6224 F500.00
G01 X14.2311 Y-25.6215 F500.00
G01 X13.8477 Y-25.6215 F500.00
G01 X13.8407 Y-25.6220 F500.00
G01 X13.8338 Y-25.6230 F500.00
G01 X13.7825 Y-25.6327 F500.00
G01 X13.7741 Y-25.6353 F500.00
G01 X13.7679 Y-25.6378 F500.00
G01 X13.7620 Y-25.6408 F500.00
G01 X13.7545 Y-25.6454 F500.00
G01 X13.6943 Y-25.6909 F500.00
G01 X13.6862 Y-25.6979 F500.00
G01 X13.6803 Y-25.7041 F500.00
G01 X13.6763 Y-25.7092 F500.00
G01 X13.6138 Y-25.7938 F500.00
G01 X13.5266 Y-25.8582 F500.00
G01 X13.4460 Y-25.8865 F500.00
G01 X13.4293 Y-25.8934 F500.00
G01 X13.4232 Y-25.8965 F500.00
G01 X13.4173 Y-25.9001 F500.00
G01 X13.4082 Y-25.9070 F500.00
G01 X13.3529 Y-25.9550 F500.00
G01 X13.3451 Y-25.9630 F500.00
G01 X13.3372 Y-25.9738 F500.00
G01 X13.3310 Y-25.9856 F500.00
G01 X13.3271 Y-25.9961 F500.00
G01 X13.3066 Y-26.0663 F500.00
G01 X13.3047 Y-26.0747 F500.00
G01 X13.3037 Y-26.0832 F500.00
G01 X13.3035 Y-26.4090 F500.00
G00 Z2.0000
G00 X15.3996 Y-27.7683
G01 F300.00
G01 Z-0.0693
G01 F500.00
G01 X15.0120 Y-27.7683 F500.00
G01 X15.0120 Y-28.0555 F500.00
G01 X15.1222 Y-28.0210 F500.00
G01 X15.1260 Y-28.0193 F500.00
G01 X15.2503 Y-27.9440 F500.00
G01 X15.2536 Y-27.9414 F500.00
G01 X15.3564 Y-27.8386 F500.00
G01 X15.3590 Y-27.8353 F500.00
G01 X15.3996 Y-27.7683 F500.00
G00 Z2.0000
G00 X17.0329 Y-27.1855
G01 F300.00
G01 Z-0.0693
G01 F500.00
G01 X16.9929 Y-27.2255 F500.00
G01 X17.4190 Y-27.2255 F500.00
G01 X17.4190 Y-27.1855 F500.00
G01 X17.0329 Y-27.1855 F500.00
G00 Z2.0000
G00 X16.9820 Y-27.0415
G01 F300.00
G01 Z-0.0693
G01 F500.00
G01 X16.9735 Y-27.0412 F500.00
G01 X16.7022 Y-27.3125 F500.00
G01 X16.8444 Y-27.3597 F500.00
G01 X16.8481 Y-27.3605 F500.00
G01 X16.9353 Y-27.3694 F500.00
G01 X17.5630 Y-27.3695 F500.00
G01 X17.5630 Y-27.0415 F500.00
G01 X16.9820 Y-27.0415 F500.00
G00 Z2.0000
G00 X16.5132 Y-25.8356
G01 F300.00
G01 Z-0.0693
G01 F500.00
G01 X16.5200 Y-25.8300 F500.00
G01 X16.5631 Y-25.7982 F500.00
G01 X16.6089 Y-25.7706 F500.00
G01 X16.6167 Y-25.7665 F500.00
G01 X16.6611 Y-25.7455 F500.00
G01 X16.6699 Y-25.7419 F500.00
G01 X16.6821 Y-25.7162 F500.00
G01 X16.6993 Y-25.6876 F500.00
G01 X16.7192 Y-25.6608 F500.00
G01 X16.7416 Y-25.6361 F500.00
G01 X16.7663 Y-25.6137 F500.00
G01 X16.7931 Y-25.5938 F500.00
G01 X16.8217 Y-25.5766 F500.00
G01 X16.8539 Y-25.5616 F500.00
G01 X16.8833 Y-25.5511 F500.00
G01 X16.9114 Y-25.5440 F500.00
G01 X16.9200 Y-25.5423 F500.00
G01 X16.9465 Y-25.5384 F500.00
G01 X16.9531 Y-25.5378 F500.00
G01 X16.9820 Y-25.5365 F500.00
G01 X17.3167 Y-25.5365 F500.00
G01 X17.3167 Y-25.2085 F500.00
G01 X16.9372 Y-25.2085 F500.00
G01 X16.8470 Y-25.2178 F500.00
G01 X16.8432 Y-25.2186 F500.00
G01 X16.6987 Y-25.2668 F500.00
G01 X16.6950 Y-25.2685 F500.00
G01 X16.5660 Y-25.3483 F500.00
G01 X16.5628 Y-25.3509 F500.00
G01 X16.4556 Y-25.4582 F500.00
G01 X16.4531 Y-25.4614 F500.00
G01 X16.3735 Y-25.5905 F500.00
G01 X16.3718 Y-25.5942 F500.00
G01 X16.3238 Y-25.7389 F500.00
G01 X16.3230 Y-25.7426 F500.00
G01 X16.3140 Y-25.8317 F500.00
G01 X16.3140 Y-25.9450 F500.00
G01 X16.4003 Y-25.9450 F500.00
G01 X16.4752 Y-25.8701 F500.00
G01 X16.5132 Y-25.8356 F500.00
G00 Z2.0000
G00 X16.5734 Y-25.6173
G01 F300.00
G01 Z-0.0693
G01 F500.00
G01 X16.5796 Y-25.6076 F500.00
G01 X16.5862 Y-25.5982 F500.00
G01 X16.6043 Y-25.5739 F500.00
G01 X16.6116 Y-25.5651 F500.00
G01 X16.6398 Y-25.5343 F500.00
G01 X16.6706 Y-25.5061 F500.00
G01 X16.6794 Y-25.4988 F500.00
G01 X16.7037 Y-25.4807 F500.00
G01 X16.7131 Y-25.4741 F500.00
G01 X16.7228 Y-25.4679 F500.00
G01 X16.7538 Y-25.4497 F500.00
G01 X16.7915 Y-25.4316 F500.00
G01 X16.8021 Y-25.4272 F500.00
G01 X16.8306 Y-25.4169 F500.00
G01 X16.8415 Y-25.4133 F500.00
G01 X16.8526 Y-25.4103 F500.00
G01 X16.8876 Y-25.4018 F500.00
G01 X16.8989 Y-25.3998 F500.00
G01 X16.9346 Y-25.3948 F500.00
G01 X16.9460 Y-25.3940 F500.00
G01 X16.9820 Y-25.3925 F500.00
G01 X17.1727 Y-25.3925 F500.00
G01 X17.1727 Y-25.3525 F500.00
G01 X16.9437 Y-25.3525 F500.00
G01 X16.8756 Y-25.3596 F500.00
G01 X16.7582 Y-25.3987 F500.00
G01 X16.6543 Y-25.4630 F500.00
G01 X16.5680 Y-25.5495 F500.00
G01 X16.5039 Y-25.6535 F500.00
G01 X16.4988 Y-25.6687 F500.00
G01 X16.5398 Y-25.6442 F500.00
G01 X16.5500 Y-25.6388 F500.00
G01 X16.5648 Y-25.6317 F500.00
G01 X16.5734 Y-25.6173 F500.00
G00 Z2.0000
G00 X18.8653 Y-25.5381
G01 F300.00
G01 Z-0.0693
G01 F500.00
G01 X18.8983 Y-25.5430 F500.00
G01 X18.9307 Y-25.5511 F500.00
G01 X18.9621 Y-25.5624 F500.00
G01 X18.9923 Y-25.5766 F500.00
G01 X19.0209 Y-25.5938 F500.00
G01 X19.0477 Y-25.6137 F500.00
G01 X19.0724 Y-25.6361 F500.00
G01 X19.0919 Y-25.6575 F500.00
G01 X19.0975 Y-25.6643 F500.00
G01 X19.1147 Y-25.6876 F500.00
G01 X19.1319 Y-25.7162 F500.00
G01 X19.1461 Y-25.7464 F500.00
G01 X19.1580 Y-25.7799 F500.00
G01 X19.1655 Y-25.8102 F500.00
G01 X19.1706 Y-25.8454 F500.00
G01 X19.1720 Y-25.8743 F500.00
G01 X19.1720 Y-25.9450 F500.00
G01 X19.5000 Y-25.9450 F500.00
G01 X19.5000 Y-25.8317 F500.00
G01 X19.4907 Y-25.7415 F500.00
G01 X19.4899 Y-25.7377 F500.00
G01 X19.4417 Y-25.5932 F500.00
G01 X19.4400 Y-25.5895 F500.00
G01 X19.3602 Y-25.4605 F500.00
G01 X19.3576 Y-25.4573 F500.00
G01 X19.2503 Y-25.3501 F500.00
G01 X19.2471 Y-25.3476 F500.00
G01 X19.1180 Y-25.2680 F500.00
G01 X19.1143 Y-25.2663 F500.00
G01 X18.9696 Y-25.2183 F500.00
G01 X18.9659 Y-25.2175 F500.00
G01 X18.8768 Y-25.2085 F500.00
G01 X18.4973 Y-25.2085 F500.00
G01 X18.4973 Y-25.5365 F500.00
G01 X18.8320 Y-25.5365 F500.00
G01 X18.8653 Y-25.5381 F500.00
G00 Z2.0000
G00 X18.8794 Y-25.3948
G01 F300.00
G01 Z-0.0693
G01 F500.00
G01 X18.9208 Y-25.4007 F500.00
G01 X18.9376 Y-25.4043 F500.00
G01 X18.9725 Y-25.4133 F500.00
G01 X19.0065 Y-25.4252 F500.00
G01 X19.0172 Y-25.4293 F500.00
G01 X19.0277 Y-25.4340 F500.00
G01 X19.0602 Y-25.4497 F500.00
G01 X19.0912 Y-25.4679 F500.00
G01 X19.1009 Y-25.4741 F500.00
G01 X19.1103 Y-25.4807 F500.00
G01 X19.1346 Y-25.4988 F500.00
G01 X19.1434 Y-25.5061 F500.00
G01 X19.1742 Y-25.5343 F500.00
G01 X19.1986 Y-25.5608 F500.00
G01 X19.2061 Y-25.5695 F500.00
G01 X19.2132 Y-25.5785 F500.00
G01 X19.2344 Y-25.6076 F500.00
G01 X19.2561 Y-25.6433 F500.00
G01 X19.2640 Y-25.6586 F500.00
G01 X19.2792 Y-25.6913 F500.00
G01 X19.2934 Y-25.7305 F500.00
G01 X19.2982 Y-25.7471 F500.00
G01 X19.3055 Y-25.7765 F500.00
G01 X19.3078 Y-25.7877 F500.00
G01 X19.3098 Y-25.8010 F500.00
G01 X19.3521 Y-25.8010 F500.00
G01 X19.3489 Y-25.7701 F500.00
G01 X19.3098 Y-25.6527 F500.00
G01 X19.2455 Y-25.5488 F500.00
G01 X19.1590 Y-25.4625 F500.00
G01 X19.0550 Y-25.3984 F500.00
G01 X18.9374 Y-25.3594 F500.00
G01 X18.8704 Y-25.3525 F500.00
G01 X18.6413 Y-25.3525 F500.00
G01 X18.6413 Y-25.3925 F500.00
G01 X18.8320 Y-25.3925 F500.00
G01 X18.8680 Y-25.3940 F500.00
G01 X18.8794 Y-25.3948 F500.00
G00 Z2.0000
G00 X19.3491 Y-26.8069
G01 F300.00
G01 Z-0.0693
G01 F500.00
G01 X19.3522 Y-26.7770 F500.00
G01 X19.3098 Y-26.7770 F500.00
G01 X19.3078 Y-26.7903 F500.00
G01 X19.3055 Y-26.8015 F500.00
G01 X19.2968 Y-26.8365 F500.00
G01 X19.2934 Y-26.8475 F500.00
G01 X19.2833 Y-26.8760 F500.00
G01 X19.2769 Y-26.8920 F500.00
G01 X19.2588 Y-26.9297 F500.00
G01 X19.2406 Y-26.9607 F500.00
G01 X19.2312 Y-26.9751 F500.00
G01 X19.2097 Y-27.0041 F500.00
G01 X19.1986 Y-27.0172 F500.00
G01 X19.1742 Y-27.0437 F500.00
G01 X19.1434 Y-27.0719 F500.00
G01 X19.1300 Y-27.0827 F500.00
G01 X19.1009 Y-27.1039 F500.00
G01 X19.0701 Y-27.1227 F500.00
G01 X19.0551 Y-27.1310 F500.00
G01 X19.0225 Y-27.1464 F500.00
G01 X19.0065 Y-27.1528 F500.00
G01 X18.9780 Y-27.1629 F500.00
G01 X18.9670 Y-27.1663 F500.00
G01 X18.9376 Y-27.1737 F500.00
G01 X18.9264 Y-27.1762 F500.00
G01 X18.9151 Y-27.1782 F500.00
G01 X18.8851 Y-27.1825 F500.00
G01 X18.8737 Y-27.1837 F500.00
G01 X18.8320 Y-27.1855 F500.00
G01 X18.3950 Y-27.1855 F500.00
G01 X18.3950 Y-27.2255 F500.00
G01 X18.8703 Y-27.2255 F500.00
G01 X18.9384 Y-27.2184 F500.00
G01 X19.0558 Y-27.1793 F500.00
G01 X19.1597 Y-27.1150 F500.00
G01 X19.2460 Y-27.0285 F500.00
G01 X19.3101 Y-26.9245 F500.00
G01 X19.3491 Y-26.8069 F500.00
G00 Z2.0000
G00 X19.2480 Y-27.2297
G01 F300.00
G01 Z-0.0693
G01 F500.00
G01 X19.2512 Y-27.2271 F500.00
G01 X19.3584 Y-27.1198 F500.00
G01 X19.3609 Y-27.1166 F500.00
G01 X19.4405 Y-26.9875 F500.00
G01 X19.4422 Y-26.9838 F500.00
G01 X19.4902 Y-26.8391 F500.00
G01 X19.4910 Y-26.8354 F500.00
G01 X19.5000 Y-26.7463 F500.00
G01 X19.5000 Y-26.6330 F500.00
G01 X19.1720 Y-26.6330 F500.00
G01 X19.1720 Y-26.7037 F500.00
G01 X19.1707 Y-26.7304 F500.00
G01 X19.1698 Y-26.7392 F500.00
G01 X19.1650 Y-26.7700 F500.00
G01 X19.1574 Y-26.8002 F500.00
G01 X19.1461 Y-26.8316 F500.00
G01 X19.1319 Y-26.8618 F500.00
G01 X19.1171 Y-26.8867 F500.00
G01 X19.1122 Y-26.8940 F500.00
G01 X19.0962 Y-26.9155 F500.00
G01 X19.0919 Y-26.9205 F500.00
G01 X19.0708 Y-26.9435 F500.00
G01 X19.0510 Y-26.9614 F500.00
G01 X19.0442 Y-26.9670 F500.00
G01 X19.0209 Y-26.9842 F500.00
G01 X18.9923 Y-27.0014 F500.00
G01 X18.9621 Y-27.0156 F500.00
G01 X18.9328 Y-27.0262 F500.00
G01 X18.9026 Y-27.0340 F500.00
G01 X18.8940 Y-27.0357 F500.00
G01 X18.8653 Y-27.0399 F500.00
G01 X18.8342 Y-27.0415 F500.00
G01 X18.2510 Y-27.0415 F500.00
G01 X18.2510 Y-27.3695 F500.00
G01 X18.8768 Y-27.3695 F500.00
G01 X18.9670 Y-27.3602 F500.00
G01 X18.9708 Y-27.3594 F500.00
G01 X19.1153 Y-27.3112 F500.00
G01 X19.1190 Y-27.3095 F500.00
G01 X19.2480 Y-27.2297 F500.00
G00 Z2.0000
G00 X21.5688 Y-25.1336
G01 F300.00
G01 Z-0.0693
G01 F500.00
G01 X21.5640 Y-25.1025 F500.00
G01 X21.5623 Y-25.0796 F500.00
G01 X21.5623 Y-31.3767 F500.00
G01 X21.5688 Y-31.3856 F500.00
G01 X21.5688 Y-25.1336 F500.00
G00 Z2.0000
G00 X21.5625 Y-25.0329
G01 F300.00
G01 Z-0.0693
G01 F500.00
G01 X21.5634 Y-25.0215 F500.00
G01 X21.5648 Y-25.0101 F500.00
G01 X21.5679 Y-24.9899 F500.00
G01 X21.5701 Y-24.9786 F500.00
G01 X21.5781 Y-24.9476 F500.00
G01 X21.5817 Y-24.9367 F500.00
G01 X21.5898 Y-24.9146 F500.00
G01 X21.5623 Y-24.9421 F500.00
G01 X21.5623 Y-25.0386 F500.00
G01 X21.5625 Y-25.0329 F500.00
G00 Z2.0000
G00 X24.1812 Y-22.3249
G01 F300.00
G01 Z-0.0693
G01 F500.00
G01 X24.2059 Y-22.3160 F500.00
G01 X24.2255 Y-22.3105 F500.00
G01 X24.2216 Y-22.3022 F500.00
G01 X24.2160 Y-22.2883 F500.00
G01 X24.1784 Y-22.3260 F500.00
G01 X24.1812 Y-22.3249 F500.00
G00 Z2.0000
G00 X24.3356 Y-22.1346
G01 F300.00
G01 Z-0.0693
G01 F500.00
G01 X24.3362 Y-22.1479 F500.00
G01 X24.3469 Y-22.2226 F500.00
G01 X24.3495 Y-22.2335 F500.00
G01 X24.3533 Y-22.2440 F500.00
G01 X24.3585 Y-22.2539 F500.00
G01 X24.3648 Y-22.2631 F500.00
G01 X24.4156 Y-22.3219 F500.00
G01 X24.4220 Y-22.3282 F500.00
G01 X24.4307 Y-22.3351 F500.00
G01 X24.4402 Y-22.3409 F500.00
G01 X24.4504 Y-22.3455 F500.00
G01 X24.5270 Y-22.3682 F500.00
G01 X24.5375 Y-22.3704 F500.00
G01 X24.5481 Y-22.3713 F500.00
G01 X34.2066 Y-22.3713 F500.00
G01 X34.2185 Y-22.3750 F500.00
G01 X34.2400 Y-22.3802 F500.00
G01 X34.2546 Y-22.3828 F500.00
G01 X34.2657 Y-22.3883 F500.00
G01 X34.2861 Y-22.3968 F500.00
G01 X34.3001 Y-22.4017 F500.00
G01 X34.3123 Y-22.4102 F500.00
G01 X34.3312 Y-22.4217 F500.00
G01 X34.3422 Y-22.4275 F500.00
G01 X37.1924 Y-25.2776 F500.00
G01 X37.1975 Y-25.2855 F500.00
G01 X37.2047 Y-25.2953 F500.00
G01 X37.2089 Y-25.3004 F500.00
G01 X37.2151 Y-25.3067 F500.00
G01 X37.2204 Y-25.3113 F500.00
G01 X37.2382 Y-25.3323 F500.00
